!!!!SEGMENT: pl-wtm--r-1740-m--001-008_moniuszko-stanislaw--sonety-krymskie-hymn.krn
!!!cenid: 18xx:2915
!!!COM: Moniuszko, Stanisław
!!!COM-rismID: pe30008351
!!!CDT: 1819/05/05-1872/06/04
!!!CNT: Polish
!!!GTL: Sonety krymskie
!!!OTL: Hymn
!!!OMV: 008
!!!PDT:
!!!AGN: Secular; Sonnet
!!!SMS-siglum: PL-Wtm
!!!SMS-shelfmark: R 1740/M
!!!SMS-shelfwork: 001-008 G
!!!SMS-variant:
!!!SMS-altvar:
!!!NIFC-rismSourceID: 1001096350
!!!NIFC-islandoraID:
!!!URL-pdf-islandora:
!!!URL-scan:
!!!ONB-nifc: UWAGA: w zbiorze 2 aranżacje Sonetów. Pliki nr 001-001-010 w obsadzie vl (2), vla, vlc,
!!!OMD: Maëstoso.
!!!AIN: 1 bass 1 cello 2 forte 1 physh 1 viola 2 violn
!!!key:
**kern	**dynam	**kern	**dynam	**kern	**dynam	**kern	**dynam	**kern	**dynam	**kern	**kern	**dynam	**kern	**kern	**dynam	**kern	**kern	**fing	**dynam
*part8	*part8	*part7	*part7	*part6	*part6	*part5	*part5	*part4	*part4	*part3	*part3	*part3	*part2	*part2	*part2	*part1	*part1	*part1	*part1
*staff11	*	*staff10	*	*staff9	*	*staff8	*	*staff7	*	*staff6	*staff5	*	*staff4	*staff3	*	*staff2	*staff1	*staff1	*
*Ibass	*	*Icello	*	*Iviola	*	*Ivioln	*	*Ivioln	*	*Iforte	*Iforte	*	*Iforte	*Iforte	*	*Iphysh	*Iphysh	*	*
*I"CB,	*	*I"Vcello	*	*I"Vla.	*	*I"V. 2.	*	*I"V. 1.	*	*I"Fortepiano.	*I"Fortepiano.	*	*I"Fortepiano.	*I"Fortepiano.	*	*I"Physharmonica.	*I"Physharmonica.	*	*
*clefF4	*	*clefF4	*	*clefC3	*	*clefG2	*	*clefG2	*	*clefF4	*clefF4	*	*clefG2	*clefG2	*	*clefF4	*clefG2	*	*
*Trd0c0	*	*	*	*	*	*	*	*	*	*	*	*	*	*	*	*	*	*	*
*k[b-e-a-d-g-]	*	*k[b-e-a-d-g-]	*	*k[b-e-a-d-g-]	*	*k[b-e-a-d-g-]	*	*k[b-e-a-d-g-]	*	*k[b-e-a-d-g-]	*k[b-e-a-d-g-]	*	*k[b-e-a-d-g-]	*k[b-e-a-d-g-]	*	*k[b-e-a-d-g-]	*k[b-e-a-d-g-]	*	*
*D-:	*	*D-:	*	*D-:	*	*D-:	*	*D-:	*	*D-:	*D-:	*	*D-:	*D-:	*	*D-:	*D-:	*	*
*M2/2	*	*M2/2	*	*M2/2	*	*M2/2	*	*M2/2	*	*M2/2	*M2/2	*	*M2/2	*M2/2	*	*M2/2	*M2/2	*	*
*all\right	*	*all\right	*	*all\right	*	*all\right	*	*all\right	*	*all\right	*all\right	*	*all\right	*all\right	*	*all\right	*all\right	*	*
*met(c|)	*	*met(c|)	*	*met(c|)	*	*met(c|)	*	*met(c|)	*	*met(c|)	*met(c|)	*	*met(c|)	*met(c|)	*	*met(c|)	*met(c|)	*	*
=1	=1	=1	=1	=1	=1	=1	=1	=1	=1	=1	=1	=1	=1	=1	=1	=1	=1	=1	=1
!	!	!	!	!	!	!	!	!LO:TX:a:t=Maestoso	!	!	!	!	!	!LO:TX:a:t=Maestoso	!	!	!LO:TX:a:t=N° 7.	!	!
2r	.	2r	.	1r	.	1r	.	1r	.	2r	2r	.	1ryy	1ryy	.	1r	1r	.	.
4r	.	4r	p	.	.	.	.	.	.	4r	4r	.	.	.	.	.	.	.	.
!LO:TX:b:B:t=A=:color=red	!	!	!	!	!	!	!	!	!	!	!	!	!	!	!	!	!	!	!
4AA-|/	.	4AA-|/	.	.	.	.	.	.	.	4AAA-'/	4AA-|/	.	.	.	.	.	.	.	.
=2	=2	=2	=2	=2	=2	=2	=2	=2	=2	=2	=2	=2	=2	=2	=2	=2	=2	=2	=2
*2\right	*	*2\right	*	*	*	*	*	*	*	*	*	*	*	*	*	*	*	*	*
!	!	!	!	!	!	!	!	!LO:TX:a:B:t=A=:color=red	!	!	!	!	!	!	!	!	!LO:TX:a:B:t=A=:color=red	!	!
2D-^\	.	2D-^\	.	1r	.	2r	.	1r	.	2DD-^/	2D-^/	.	2r	1ryy	.	1r	2r	.	.
!	!	!	!	!	!	!	!	!	!	!	!	!	!	!	!	!	!LO:TX:a:t=(&colon;8&colon;)	!	!
2F^\	.	2FF^/	.	.	.	4r	p	.	.	2AAA-^/	2FF^/	.	4r	.	.	.	4r	.	.
.	.	.	.	.	.	4d-/	.	.	.	.	.	.	4d-'/	.	.	.	4d-/	.	p
=3	=3	=3	=3	=3	=3	=3	=3	=3	=3	=3	=3	=3	=3	=3	=3	=3	=3	=3	=3
2.E-^\	.	2.EE-/	.	1r	.	2g-^/	.	2r	.	2.GGG-/	2.EE-/	.	2g-^/	1r	.	1r	2g-^/	.	.
!	!	!	!	!	!	!	!	!	!LO:DY:rj	!	!	!	!	!	!	!	!	!	!
.	.	.	.	.	.	2B-/	.	4b-\	p	.	.	.	[2B-^/	.	.	.	[2B-^/	.	.
4D-\	.	4DD-/	.	.	.	.	.	8cc\L	.	4DD-/	4r	.	.	.	.	.	.	.	.
.	.	.	.	.	.	.	.	8dd-\J	.	.	.	.	.	.	.	.	.	.	.
=4	=4	=4	=4	=4	=4	=4	=4	=4	=4	=4	=4	=4	=4	=4	=4	=4	=4	=4	=4
*	*	*	*	*	*	*	*	*2\right	*	*	*	*	*	*2\right	*	*	*	*	*
2.C/	.	2CC/	.	2r	p	4B-/	.	2ee-^\	.	2.CC/	2r	.	2B-/]	2ee-^\	.	2r	4B-/]	.	.
.	.	.	.	.	.	4r	.	.	.	.	.	.	.	.	.	.	4r	.	.
*	*	*	*	*	*	*	*	*	*	*	*2\right	*	*	*	*	*2\right	*	*	*
.	.	4C/	.	2E-/	.	2g-^/	.	4g-^/	.	.	2E-\	.	2r	2g-^/	.	2E-\	2r	.	.
4BB-/	.	4BB-/	.	.	.	.	.	8a-/L	.	4BBB-/ 4BB-	.	.	.	.	.	.	.	.	.
.	.	.	.	.	.	.	.	8b-/J	.	.	.	.	.	.	.	.	.	.	.
=5	=5	=5	=5	=5	=5	=5	=5	=5	=5	=5	=5	=5	=5	=5	=5	=5	=5	=5	=5
!	!	!	!	!	!	!	!	!	!	!	!	!	!	!	!LO:DY:rj	!	!	!	!
1AA-	.	1AA-	.	2A-^/	.	1e-	.	4.cc\	.	1AAA- 1AA-	2A-^\	.	1r	2e-/	p	2A-^\	1ryy	.	.
.	.	.	.	.	.	.	.	8b-\	.	.	.	.	.	.	.	.	.	.	.
.	.	.	.	2C^/	.	.	.	4a-\	.	.	2C^/	.	.	2r	.	[2C^/	.	.	.
.	.	.	.	.	.	.	.	4g-\	.	.	.	.	.	.	.	.	.	.	.
*	*	*	*	*	*	*	*	*	*	*	*	*	*	*	*	*	*clefF4	*	*
=6	=6	=6	=6	=6	=6	=6	=6	=6	=6	=6	=6	=6	=6	=6	=6	=6	=6	=6	=6
*	*	*	*	*	*	*	*	*	*	*	*	*	*	*	*	*	*2\right	*	*
1AAn	.	1AAn	.	4C/	.	1c	.	2.f/	sf	1AAAn 1AAn	2F\	.	2f^/	1r	.	4C/]	2f^\	.	.
.	.	.	.	4r	.	.	.	.	.	.	.	.	.	.	.	4r	.	.	.
.	.	.	.	[2F/	sf	.	.	.	.	.	2r	.	2F^/	.	.	2r	[2F^\	.	.
.	.	.	.	.	.	.	.	4e-/	.	.	.	.	.	.	.	.	.	.	.
!LO:TX:t=P:barline.color=red:problem	!	!LO:TX:t=P:barline.color=red:problem	!	!LO:TX:t=P:barline.color=red:problem	!	!LO:TX:t=P:barline.color=red:problem	!	!LO:TX:t=P:barline.color=red:problem	!	!	!	!	!	!	!	!	!	!	!
=7	=7	=7	=7	=7	=7	=7	=7	=7	=7	=7	=7	=7	=7	=7	=7	=7	=7	=7	=7
*	*	*	*	*	*	*	*	*	*	*	*	*	*	*	*	*	*^	*	*
!	!	!	!	!	!	!	!	!	!	!	!	!LO:DY:rj	!	!	!LO:DY:rj	!	!	!	!	!
4.BB-/	.	4.BB-/	.	2F/]	.	2.B-/	.	2.d-/	.	4.BBB-/ 4.BB-	(2.D-^\	p	1r	(2.d-^/	p	1r	(2.d-/	2F\]	.	.
8AA-X/	.	8AA-X/	.	.	.	.	.	.	.	8AAA-/ 8AA-	.	.	.	.	.	.	.	.	.	.
4GG-|/	.	4GG-/	.	2G-/	.	.	.	.	.	4GGG-/ 4GG-	.	.	.	.	.	.	.	2G-\	.	.
!	!	!	!	!	!	!	!	!	!	!LO:TX:b:t=8	!	!	!	!	!	!	!	!	!	!
4r	.	4EE-'/	.	.	.	4c/	.	4e-/	.	4EEE-/yy 4EE-	4E-\	.	.	4e-/	.	.	4e-/	.	.	.
*	*	*	*	*	*	*	*	*	*	*	*	*	*	*	*	*	*v	*v	*	*
=8	=8	=8	=8	=8	=8	=8	=8	=8	=8	=8	=8	=8	=8	=8	=8	=8	=8	=8	=8
*	*	*	*	*	*	*	*	*	*	*	*	*	*	*	*	*	*^	*	*
*	*	*	*	*	*	*	*	*	*	*	*	*	*	*	*	*	*	*	*below	*
!	!	!	!	!	!	!LO:N:vis=1	!	!	!	!	!	!	!	!	!	!	!	!	!	!LO:DY:rj
1AA-	.	1AA-	.	4A-^/	.	2d-/	.	(4f/	.	2AAA-/ 2AA-	4F\	.	1ryy	4f/	.	1AAA- 1AA-	2d-/	4A-\	3	p
.	.	.	.	8G-/L	.	.	.	4g-/	.	.	4G-\	.	.	4g-/	.	.	.	8G-\L	2	.
.	.	.	.	8F/J	.	.	.	.	.	.	.	.	.	.	.	.	.	8F\J	1	.
.	.	.	.	8E-/L	.	4c/	.	4a-/)	.	2r	4A-\	.	.	4a-/	.	.	4c/	8E-\L	2	.
.	.	.	.	8F/J	.	.	.	.	.	.	.	.	.	.	.	.	.	8F\J	1	.
.	.	.	.	[4G-/	.	4e-/	.	8b-\L	.	.	8B-\L	.	.	8b-\L	.	.	4e-/	4G-\	2	.
.	.	.	.	.	.	.	.	8cc\J	.	.	8c\J	.	.	8cc\J	.	.	.	.	.	.
!!LO:PB:g=original
*	*	*	*	*	*	*	*	*	*	*	*	*	*	*	*	*	*clefG2	*	*	*
=9	=9	=9	=9	=9	=9	=9	=9	=9	=9	=9	=9	=9	=9	=9	=9	=9	=9	=9	=9	=9
*	*	*	*	*^	*	*	*	*	*	*	*	*	*	*	*	*	*	*	*	*
!	!	!	!	!LO:TX:t=P:problem=brak zakończenia łuku	!	!	!	!	!	!	!	!	!	!	!	!	!	!	!	!	!
2BB--/	.	2BB--/	.	2G-/]	2ryy	.	(4d-/	.	2.dd-\	.	1r@	2d-@\)	.	1r@	2dd-@\)	.	2BBB--/ 2BB--	4d-/)	2G-\	.	.
.	.	.	.	.	.	.	4e-/	.	.	.	.	.	.	.	.	.	.	4e-/	.	.	.
2AA-/	.	2AA-/	.	2A-/	[>2D-\	.	4f/)	.	.	.	.	2ryy	.	.	2r@	.	2AAA-/ 2AA-	4f/	2A-\	.	.
.	.	.	.	.	.	.	8g-/L	.	4cc-X\	.	.	.	.	.	.	.	.	8g-/L	.	.	.
.	.	.	.	.	.	.	8a-/J	.	.	.	.	.	.	.	.	.	.	8a-/J	.	.	.
*	*	*	*	*v	*v	*	*	*	*	*	*	*	*	*	*	*	*	*v	*v	*	*
=10	=10	=10	=10	=10	=10	=10	=10	=10	=10	=10	=10	=10	=10	=10	=10	=10	=10	=10	=10
1GG-	.	(2GG-/	.	1D-]	.	(4a-/	.	(4cc-X\	.	1r@	1r@	.	1r@	1r@	.	1GGG- 1GG-	(4a-/	.	.
.	.	.	.	.	.	4g-/	.	4b--\	.	.	.	.	.	.	.	.	4g-/	.	.
.	.	4AA-/	.	.	.	4f/	.	4a-/	.	.	.	.	.	.	.	.	4f/	.	.
!	!	!	!	!	!	!	!	!	!	!	!	!	!	!	!	!	!LO:TX:a:B:t==B:color=red	!	!
.	.	4BB--/)	.	.	.	4e-/)	.	4g-/)	.	.	.	.	.	.	.	.	4e-/)	.	.
=11	=11	=11	=11	=11	=11	=11	=11	=11	=11	=11	=11	=11	=11	=11	=11	=11	=11	=11	=11
!LO:TX:b:B:t==B:color=red	!	!	!	!	!	!	!	!	!	!	!LO:TX:a:B:t==B:color=red	!	!	!	!	!	!	!	!
1D-	.	(4AA-^/	.	4.D-/	.	(2f/	.	(2a-/	.	1ryy	1ryy	.	1ryy	1ryy	.	1DD-	2f/	.	.
!	!	!LO:N:acc=n-	!	!	!	!	!	!	!	!	!	!	!	!	!	!	!	!	!
.	.	8BB-X/L	.	.	.	.	.	.	.	.	.	.	.	.	.	.	.	.	.
.	.	8C/J	.	8C/	.	.	.	.	.	.	.	.	.	.	.	.	.	.	.
.	.	8D-/L	.	8D-/L	.	4d-/)	.	4f/)	.	.	.	.	.	.	.	.	2r	.	.
.	.	8C/	.	8C/	.	.	.	.	.	.	.	.	.	.	.	.	.	.	.
.	.	8D-/	.	8D-/	.	4r	.	4r	.	.	.	.	.	.	.	.	.	.	.
.	.	8F/J)	.	8F/J	.	.	.	.	.	.	.	.	.	.	.	.	.	.	.
=12	=12	=12	=12	=12	=12	=12	=12	=12	=12	=12	=12	=12	=12	=12	=12	=12	=12	=12	=12
1F	.	([1A-	.	1D-	.	1r	.	2a-^/	.	1ryy	1ryy	.	1ryy	1ryy	.	1r@	1r@	.	.
.	.	.	.	.	.	.	.	4.d-^/	.	.	.	.	.	.	.	.	.	.	.
.	.	.	.	.	.	.	.	8c/	.	.	.	.	.	.	.	.	.	.	.
=13	=13	=13	=13	=13	=13	=13	=13	=13	=13	=13	=13	=13	=13	=13	=13	=13	=13	=13	=13
1G-	.	2A-\]	.	1D-	.	1r	.	(4B-/	.	1ryy	1ryy	.	1ryy	1ryy	.	1r@	1r@	.	.
.	.	.	.	.	.	.	.	4d-/	.	.	.	.	.	.	.	.	.	.	.
.	.	4G-\	.	.	.	.	.	4g-/)	.	.	.	.	.	.	.	.	.	.	.
.	.	4F\)	.	.	.	.	.	4a-/	.	.	.	.	.	.	.	.	.	.	.
!LO:TX:t=P:barline.color=brown:problem	!	!LO:TX:t=P:barline.color=brown:problem	!	!LO:TX:t=P:barline.color=brown:problem	!	!LO:TX:t=P:barline.color=brown:problem	!	!LO:TX:t=P:barline.color=brown:problem	!	!	!	!	!	!	!	!	!	!	!
=14	=14	=14	=14	=14	=14	=14	=14	=14	=14	=14	=14	=14	=14	=14	=14	=14	=14	=14	=14
1G-	.	4E-\	.	(4E-/	.	1r	.	4.b-^/	.	1r	1r	.	1r	1r	.	1r	1r	.	.
.	.	4G-\	.	4G-/	.	.	.	.	.	.	.	.	.	.	.	.	.	.	.
.	.	.	.	.	.	.	.	8e-/	.	.	.	.	.	.	.	.	.	.	.
.	.	4B-\	.	4B-/)	.	.	.	4e-/	.	.	.	.	.	.	.	.	.	.	.
.	.	[4B-^\	.	4E-^/	.	.	.	4d-/	.	.	.	.	.	.	.	.	.	.	.
=15	=15	=15	=15	=15	=15	=15	=15	=15	=15	=15	=15	=15	=15	=15	=15	=15	=15	=15	=15
!	!	!	!	!	!	!	!	!	!LO:HP:a	!	!	!	!	!	!	!	!	!	!
[2G-\	.	(2B-\]	.	[2G-/	.	1r	.	(4c/	<	[2GG-^/	[2G-^\	.	1r	1r	.	1r	1r	.	.
.	.	.	.	.	.	.	.	4e-/	.	.	.	.	.	.	.	.	.	.	.
8G-\L]	.	4A-\	.	8G-/L]	.	.	.	4a-/)	.	8GG-/L]	8G-\L]	<	.	.	.	.	.	.	.
8F\	.	.	.	8F/	.	.	.	.	.	8FF/	8F\	.	.	.	.	.	.	.	.
8E-\	.	4E-\)	ff	8E-/	.	.	.	4cc\	[[	8EE-/	8E-\	.	.	.	.	.	.	.	.
8D-\J	ff	.	.	8D-/J	.	.	.	.	.	8DD-/J	8D-\J	[[	.	.	.	.	.	.	.
=16	=16	=16	=16	=16	=16	=16	=16	=16	=16	=16	=16	=16	=16	=16	=16	=16	=16	=16	=16
*	*	*	*	*	*	*	*	*	*	*	*	*	*	*	*	*	*^	*	*
!	!	!	!	!	!LO:DY:rj	!	!LO:DY:rj	!	!LO:DY:rj	!	!	!	!	!	!LO:DY:rj	!	!	!	!	!LO:DY:rj
4C/	.	4CC/ 4C	.	4C/ 4A-	ff	4g-/	ff	4ee-\	ff	4CC/	4C\ 4A-	ff	4e-/	4g-\ 4ee-	ff	(<2.C\ 2.E- 2.A-	(2.ee-/	1g-	.	ff
8.C/L	.	8.C/L	.	8.C/L 8.A-	.	8.g-/L	.	8.ee-\L	.	8.CC/L	8.C\L 8.A-	.	8.e-/L	8.g-\L 8.ee-	.	.	.	.	.	.
16C/Jk	.	16C/Jk	.	16C/Jk 16A-	.	16g-/Jk	.	16ee-\Jk	.	16CC/Jk	16C\Jk 16A-	.	16e-/Jk	16g-\Jk 16ee-	.	.	.	.	.	.
4C/	.	4C/	.	4C/ 4A-	.	4g-/	.	4ee-\	.	4CC/	4C\ 4A-	.	4e-/	4g-\ 4ee-	.	.	.	.	.	.
4D-/	.	4D-/	.	4A-/	.	4g-/	.	4dd-\	.	4DD-/	4D-\ 4A-	.	4d-/	4g-\ 4dd-	.	4D-\ 4A-	4dd-/)	.	.	.
!!LO:PB:g=original
=17	=17	=17	=17	=17	=17	=17	=17	=17	=17	=17	=17	=17	=17	=17	=17	=17	=17	=17	=17	=17
2E-\	.	2E-^\	.	2A-^/	.	2g-^/	.	2dd-^\	.	2EE-/	2E-^\ 2A-	.	(2d-/	((2g-^/ 2dd-	.	2E-\)	(2dd-/	(2g-^<\	.	.
2r	.	8A-\	.	8A-/	.	8e-/	.	8cc\	.	2r	8A-\	.	8c/)	8e-/)) 8cc	.	8A-\	8cc/)	8e-\)	.	.
.	.	8r	.	8r	.	8r	.	8r	.	.	8r	.	8r	8r	.	8r	8r	8ryy	.	.
.	.	4G-\	.	4A-/	.	4e-/	.	4cc\	.	.	4r	.	4r	4r	.	4r	4r	4ryy	.	.
*	*	*	*	*	*	*	*	*	*	*	*	*	*	*	*	*	*v	*v	*	*
=18	=18	=18	=18	=18	=18	=18	=18	=18	=18	=18	=18	=18	=18	=18	=18	=18	=18	=18	=18
1r	.	2F\	>	2A-/	>	2d-/	>	(2dd-\	>	1r	1r	.	1r	1r	.	1r	1r	.	.
.	.	4D-\	.	4A-/	.	4f/	.	4a-/	.	.	.	.	.	.	.	.	.	.	.
.	.	4F\	.	4A-/	.	4d-/	.	4f/	.	.	.	.	.	.	.	.	.	.	.
=19	=19	=19	=19	=19	=19	=19	=19	=19	=19	=19	=19	=19	=19	=19	=19	=19	=19	=19	=19
1r	.	2E-\	.	2G-/	.	2d-/	.	2b-/	.	1r	1r	.	1r	1r	.	1r	1r	.	.
.	.	4AA-/	]	4E-/	]	4c/	]	4a-/)	] p	.	.	.	.	.	.	.	.	.	.
.	.	4r	.	4r	.	4r	.	4r	.	.	.	.	.	.	.	.	.	.	.
!LO:TX:t=P:barline.color=brown:problem	!	!LO:TX:t=P:barline.color=brown:problem	!	!LO:TX:t=P:barline.color=brown:problem	!	!LO:TX:t=P:barline.color=brown:problem	!	!LO:TX:t=P:barline.color=brown:problem	!	!	!	!	!	!	!	!	!	!	!
=20	=20	=20	=20	=20	=20	=20	=20	=20	=20	=20	=20	=20	=20	=20	=20	=20	=20	=20	=20
*	*	*	*	*	*	*	*	*	*	*	*ped	*	*	*ped	*	*	*	*	*
!	!	!	!	!	!	!	!	!	!	!	!	!LO:DY:rj	!	!	!LO:DY:rj	!	!	!	!
1r	.	1r	.	1r	.	1r	.	1r	.	2DD-/ 2AA-	2D-\ 2F 2A-	p	2d-/	2f/ 2a-	p	1r	1r	.	.
*	*	*	*	*	*	*	*	*	*	*	*Xped	*	*	*Xped	*	*	*	*	*
.	.	.	.	.	.	.	.	.	.	.	.	.	.	.	.	.	.	.	.
*	*	*	*	*	*	*	*	*	*	*	*ped	*	*	*ped	*	*	*	*	*
.	.	.	.	.	.	.	.	.	.	4.AAA-/ 4.AA-	4.E-\ 4.G- 4.A-	.	4.c/ 4.e-	4.g-/ 4.a-	.	.	.	.	.
*	*	*	*	*	*	*	*	*	*	*	*Xped	*	*	*Xped	*	*	*	*	*
.	.	.	.	.	.	.	.	.	.	8AAA-/ 8AA-	8E-\ 8G- 8A-	.	8c/ 8e-	8g-/ 8a-	.	.	.	.	.
=21	=21	=21	=21	=21	=21	=21	=21	=21	=21	=21	=21	=21	=21	=21	=21	=21	=21	=21	=21
*	*	*	*	*	*	*	*	*	*	*	*ped	*	*	*ped	*	*	*	*	*
!	!	!	!	!	!	!	!	!	!LO:DY:rj	!	!	!	!	!	!	!	!	!	!
1r	.	1r	.	1r	.	1r	.	(4a-\	pp <	2DD-/ 2AA-	2D-\ 2F 2A-	.	2d-/	2f/ 2a-	.	1ryy	1ryy	.	.
.	.	.	.	.	.	.	.	4dd-\	.	.	.	.	.	.	.	.	.	.	.
*	*	*	*	*	*	*	*	*	*	*	*Xped	*	*	*Xped	*	*	*	*	*
.	.	.	.	.	.	.	.	4ff\	.	2r	2r	.	2r	2r	.	.	.	.	.
.	.	.	.	.	.	.	.	4ee-\	[[	.	.	.	.	.	.	.	.	.	.
=22	=22	=22	=22	=22	=22	=22	=22	=22	=22	=22	=22	=22	=22	=22	=22	=22	=22	=22	=22
!	!	!	!	!	!LO:HP:a	!	!	!	!	!	!	!	!	!	!	!	!	!	!
!	!	!	!	!	!LO:DY:rj	!	!	!	!	!	!	!	!	!	!	!	!	!	!
1r	.	1r	.	(4F/	pp <	1r	.	4dd-\	>	1r	1r	.	1r	1r	.	1ryy	1ryy	.	.
.	.	.	.	4A-/	.	.	.	4a-/	.	.	.	.	.	.	.	.	.	.	.
!	!	!	!	!	!LO:HP:a	!	!	!	!	!	!	!	!	!	!	!	!	!	!
.	.	.	.	4d-/	[ >	.	.	4f/	.	.	.	.	.	.	.	.	.	.	.
.	.	.	.	4B-/)	]]	.	.	4g-/)	]	.	.	.	.	.	.	.	.	.	.
=23	=23	=23	=23	=23	=23	=23	=23	=23	=23	=23	=23	=23	=23	=23	=23	=23	=23	=23	=23
!	!	!	!LO:HP:a	!	!	!	!LO:DY:t=pp.:rj	!	!	!	!	!	!	!	!	!	!	!	!
1ryy	.	(4D-/	<	1A-	.	(2f/	pp	(2b-/	.	1r	1r	.	1r	1r	.	1ryy	1ryy	.	.
.	.	4AA-/	.	.	.	.	.	.	.	.	.	.	.	.	.	.	.	.	.
!	!	!	!LO:HP:a	!	!	!	!	!	!	!	!	!	!	!	!	!	!	!	!
.	.	4FF/	[ >	.	.	4d-/	.	4a-/)	.	.	.	.	.	.	.	.	.	.	.
.	.	4GG-/)	]]	.	.	4e-/)	.	4r	.	.	.	.	.	.	.	.	.	.	.
!!LO:PB:g=original
=24	=24	=24	=24	=24	=24	=24	=24	=24	=24	=24	=24	=24	=24	=24	=24	=24	=24	=24	=24
*	*	*	*	*	*	*	*	*	*	*	*ped	*	*	*ped	*	*	*	*	*
!LO:TX:b:t=pizzi	!	!	!	!	!	!	!	!	!	!	!	!	!	!	!	!	!	!	!
4D-\	.	4AA-/	.	4A-|/	.	4f'/	.	1r	.	2DD-/ 2AA-	2D-\ 2A-	.	2d-/	2f/ 2a-	.	1ryy	1ryy	.	.
*	*	*	*	*	*	*	*	*	*	*	*Xped	*	*	*Xped	*	*	*	*	*
4r	.	4r	.	4r	.	4r	.	.	.	.	.	.	.	.	.	.	.	.	.
*	*	*	*	*	*	*	*	*	*	*	*ped	*	*	*ped	*	*	*	*	*
2r	.	2r	.	2r	.	2r	.	.	.	4.AAA-/ 4.AA-	4.D-\ 4.G-	.	4.d-/	4.f-X/ 4.b-	.	.	.	.	.
*	*	*	*	*	*	*	*	*	*	*	*Xped	*	*	*Xped	*	*	*	*	*
.	.	.	.	.	.	.	.	.	.	8AAA-/ 8AA-	8D-\ 8G-	.	8d-/	8f-/ 8b-	.	.	.	.	.
=25	=25	=25	=25	=25	=25	=25	=25	=25	=25	=25	=25	=25	=25	=25	=25	=25	=25	=25	=25
*	*	*	*	*	*	*	*	*	*	*	*ped	*	*	*ped	*	*	*	*	*
!	!	!	!	!	!	!	!	!	!LO:DY:rj	!	!	!	!	!	!	!	!	!	!
1r	.	1r	.	1r	.	1r	.	(4e-/	pp <	2CC-X/	2C-X\ 2G-	.	2c-X/	2e-/ 2cc-X	.	1ryy	1ryy	.	.
.	.	.	.	.	.	.	.	4g-/	.	.	.	.	.	.	.	.	.	.	.
*	*	*	*	*	*	*	*	*	*	*	*Xped	*	*	*Xped	*	*	*	*	*
.	.	.	.	.	.	.	.	4ee-\	.	2r	2r	.	2r	2r	.	.	.	.	.
.	.	.	.	.	.	.	.	4dd-\	[[	.	.	.	.	.	.	.	.	.	.
=26	=26	=26	=26	=26	=26	=26	=26	=26	=26	=26	=26	=26	=26	=26	=26	=26	=26	=26	=26
!	!	!	!	!	!LO:DY:rj	!	!	!	!	!	!	!	!	!	!	!	!	!	!
1r	.	1r	.	(4E-/	pp	1r	.	4cc-X\	>	1ryy	1ryy	.	1ryy	1ryy	.	1ryy	1ryy	.	.
.	.	.	.	4G-/	.	.	.	4g-/	.	.	.	.	.	.	.	.	.	.	.
.	.	.	.	4c-X/	.	.	.	4e-/	.	.	.	.	.	.	.	.	.	.	.
.	.	.	.	4A-/)	.	.	.	4f-X/)	]	.	.	.	.	.	.	.	.	.	.
=27	=27	=27	=27	=27	=27	=27	=27	=27	=27	=27	=27	=27	=27	=27	=27	=27	=27	=27	=27
!	!	!	!	!	!	!	!LO:DY:rj	!	!	!	!	!	!	!	!	!	!	!	!
1r	.	(4G-\	<	2G-/	.	2e-/	pp	2g-/	.	1ryy	1ryy	.	1ryy	1ryy	.	1r	1r	.	.
.	.	4E-\	.	.	.	.	.	.	.	.	.	.	.	.	.	.	.	.	.
.	.	4C-X\	[ >	2A-/	.	2e-/	.	2a-/	.	.	.	.	.	.	.	.	.	.	.
.	.	4AA-/)	]]	.	.	.	.	.	.	.	.	.	.	.	.	.	.	.	.
!LO:TX:t=P:barline.color=brown:problem	!	!LO:TX:t=P:barline.color=brown:problem	!	!LO:TX:t=P:barline.color=brown:problem	!	!LO:TX:t=P:barline.color=brown:problem	!	!LO:TX:t=P:barline.color=brown:problem	!	!	!	!	!	!	!	!	!	!	!
=28	=28	=28	=28	=28	=28	=28	=28	=28	=28	=28	=28	=28	=28	=28	=28	=28	=28	=28	=28
!	!	!	!	!	!	!	!	!	!	!	!	!	!	!	!	!	!	!	!LO:DY:rj
1r	.	4GG-@/	.	4E-@/	.	4e-@/	.	4b-@\	.	1ryy	1ryy	.	1ryy	1ryy	.	[>1G- [>1B-	(>2b-/	.	p
.	.	4r@	.	4r@	.	4r@	.	4r@	.	.	.	.	.	.	.	.	.	.	.
.	.	2r	.	2r	.	2r	.	2r	.	.	.	.	.	.	.	.	[2e-/	.	.
=29	=29	=29	=29	=29	=29	=29	=29	=29	=29	=29	=29	=29	=29	=29	=29	=29	=29	=29	=29
*	*	*	*	*	*	*	*	*	*	*	*	*	*	*	*	*	*^	*	*
1r	.	1r	.	1r	.	1r	.	1r	.	1ryy	1ryy	.	1ryy	1ryy	.	1G-] 1B-]	2.ee-/	1e-^]	.	.
.	.	.	.	.	.	.	.	.	.	.	.	.	.	.	.	.	4dd-/)	.	.	.
=30	=30	=30	=30	=30	=30	=30	=30	=30	=30	=30	=30	=30	=30	=30	=30	=30	=30	=30	=30	=30
1r	.	1r	.	1r	.	1r	.	1r	.	1ryy	1ryy	.	1ryy	1ryy	.	[2.G-\ 2.A-	(<4dd-/	2e-\	.	.
.	.	.	.	.	.	.	.	.	.	.	.	.	.	.	.	.	4cc/)	.	.	.
.	.	.	.	.	.	.	.	.	.	.	.	.	.	.	.	.	4.e-^/ 4.cc	2ryy	.	.
.	.	.	.	.	.	.	.	.	.	.	.	.	.	.	.	4G-\] 4B-	.	.	.	.
.	.	.	.	.	.	.	.	.	.	.	.	.	.	.	.	.	8e-/ 8b-	.	.	.
*	*	*	*	*	*	*	*	*	*	*	*	*	*	*	*	*	*v	*v	*	*
=31	=31	=31	=31	=31	=31	=31	=31	=31	=31	=31	=31	=31	=31	=31	=31	=31	=31	=31	=31
!	!	!	!	!	!LO:DY:rj	!	!	!	!	!	!	!	!	!	!	!	!	!	!
1r	.	1r	.	4r	p	1r	.	2r	.	1ryy	1ryy	.	1ryy	1ryy	.	(4G-\	((2d-/ 2b-	.	.
.	.	.	.	(8F^/L	.	.	.	.	.	.	.	.	.	.	.	8F\L	.	.	.
.	.	.	.	8G-/J	.	.	.	.	.	.	.	.	.	.	.	8G-\J	.	.	.
!	!	!	!	!	!	!	!	!	!LO:DY:rj	!	!	!	!	!	!	!	!	!	!
.	.	.	.	4A-/	.	.	.	2a-\	p	.	.	.	.	.	.	4A-\	2c/)) 2a-	.	.
.	.	.	.	4G-/)	.	.	.	.	.	.	.	.	.	.	.	4G-\)	.	.	.
!!LO:PB:g=original
=32	=32	=32	=32	=32	=32	=32	=32	=32	=32	=32	=32	=32	=32	=32	=32	=32	=32	=32	=32
*	*	*	*	*2\right	*	*	*	*	*	*	*	*	*	*	*	*	*	*	*
!	!	!LO:TX:b:t=dolce	!	!LO:TX:b:t=dolce	!	!LO:TX:b:t=dolce	!	!LO:TX:b:t=dolce	!	!	!	!	!	!	!	!	!	!	!
(2F\	.	(2F\	.	(2d-\	.	(2a-/	.	(2dd-\	.	1ryy	1ryy	.	1ryy	1ryy	.	1ryy	1ryy	.	.
2AA-/	.	2AA-/	.	2A-/	.	2d-/	.	2f/	.	.	.	.	.	.	.	.	.	.	.
=33	=33	=33	=33	=33	=33	=33	=33	=33	=33	=33	=33	=33	=33	=33	=33	=33	=33	=33	=33
2D-/	.	2D-\)	.	2F/	.	2f/	.	2a-/	.	1ryy	1ryy	.	1ryy	1ryy	.	1ryy	1ryy	.	.
2FF/)	.	(8FF/L	.	2A-/)	.	2A-/)	.	2d-/)	.	.	.	.	.	.	.	.	.	.	.
.	.	8AA-/	.	.	.	.	.	.	.	.	.	.	.	.	.	.	.	.	.
.	.	8D-/	.	.	.	.	.	.	.	.	.	.	.	.	.	.	.	.	.
.	.	8F/J)	.	.	.	.	.	.	.	.	.	.	.	.	.	.	.	.	.
=34	=34	=34	=34	=34	=34	=34	=34	=34	=34	=34	=34	=34	=34	=34	=34	=34	=34	=34	=34
2.A-\	.	4.A-^\	.	4.A-/	.	2.d-/	.	4f/	.	1ryy	1ryy	.	1ryy	1ryy	.	1ryy	1ryy	.	.
.	.	.	.	.	.	.	.	4g-/	.	.	.	.	.	.	.	.	.	.	.
.	.	8B-\	.	8B-/	.	.	.	.	.	.	.	.	.	.	.	.	.	.	.
.	.	4A-\	.	4A-/	.	.	.	4f/	.	.	.	.	.	.	.	.	.	.	.
4G-\	.	4G-\	.	4A-/	.	4c/	.	4e-/	.	.	.	.	.	.	.	.	.	.	.
=35	=35	=35	=35	=35	=35	=35	=35	=35	=35	=35	=35	=35	=35	=35	=35	=35	=35	=35	=35
4.F^\	.	4.F\	.	1A-	.	2.d-/	.	1a-	.	1ryy	1ryy	.	1ryy	1ryy	.	1ryy	1ryy	.	.
8G-\	.	8G-\	.	.	.	.	.	.	.	.	.	.	.	.	.	.	.	.	.
4F\	.	4F\	.	.	.	.	.	.	.	.	.	.	.	.	.	.	.	.	.
4E-\	.	4E-\	.	.	.	4e-/	.	.	.	.	.	.	.	.	.	.	.	.	.
=36	=36	=36	=36	=36	=36	=36	=36	=36	=36	=36	=36	=36	=36	=36	=36	=36	=36	=36	=36
!LO:TX:a:t=col Vcello	!	!	!	!	!	!	!	!	!	!	!	!	!	!	!	!	!	!	!LO:DY:b=2:rj
4.D-/yy	.	4.D-/	.	(2d-\	.	(>2f/	.	(2dd-\	.	1ryy	1ryy	.	1ryy	1ryy	.	[<1D-	1r	.	pp
8C/yy	.	8C/	.	.	.	.	.	.	.	.	.	.	.	.	.	.	.	.	.
4BB-/yy	.	4BB-/	.	2F/	.	2d-/	.	2f/	.	.	.	.	.	.	.	.	.	.	.
4AA-/yy	.	4AA-/	.	.	.	.	.	.	.	.	.	.	.	.	.	.	.	.	.
=37	=37	=37	=37	=37	=37	=37	=37	=37	=37	=37	=37	=37	=37	=37	=37	=37	=37	=37	=37
!	!	!	!	!	!	!	!	!	!	!	!	!	!	!	!	!	!LO:SIC:v:s=[>1ggn	!	!
1GGnyy	.	1GGn	.	1f)	.	1d-)	.	1b-)	.	1ryy	1ryy	.	1ryy	1ryy	.	1D-_<	[<1gg-	.	.
=38	=38	=38	=38	=38	=38	=38	=38	=38	=38	=38	=38	=38	=38	=38	=38	=38	=38	=38	=38
!	!LO:DY:t=pp.:rj	!	!LO:DY:t=pp.:rj	!	!LO:DY:t=pp.:rj	!	!LO:DY:t=pp.:rj	!	!LO:DY:t=pp.:rj	!	!	!	!	!	!	!	!LO:SIC:v:s=1ggn]	!	!
[<1GG-Xyy	ppy	[>1GG-X	pp	(>4.f-X\	pp	(4.d-/	pp	(4.b-\	pp	1ryy	1ryy	.	1ryy	1ryy	.	2.D-\]	1gg-]	.	.
.	.	.	.	8f-|\	.	8d-|/	.	8b-|\	.	.	.	.	.	.	.	.	.	.	.
.	.	.	.	4f-|\	.	4d-|/	.	4b-|\	.	.	.	.	.	.	.	.	.	.	.
.	.	.	.	4f-|\)	.	4d-|/)	.	4b-|\)	.	.	.	.	.	.	.	4r	.	.	.
=39	=39	=39	=39	=39	=39	=39	=39	=39	=39	=39	=39	=39	=39	=39	=39	=39	=39	=39	=39
!	!	!	!	!LO:TX:b:t=ligatiſsimo.	!	!	!	!LO:TX:b:t=ligatiſsimo	!	!	!	!	!	!	!	!	!	!	!
2.GG-/]	.	1GG-]	.	(2f-X\	.	(2d-/	.	(2b-^\	.	1ryy	1ryy	.	1ryy	1ryy	.	1r	2gg-\	.	.
.	.	.	.	2An/)	.	2c/)	.	2e-/)	.	.	.	.	.	.	.	.	2ffn\	.	.
4r	.	.	.	.	.	.	.	.	.	.	.	.	.	.	.	.	.	.	.
!!LO:PB:g=original
=40	=40	=40	=40	=40	=40	=40	=40	=40	=40	=40	=40	=40	=40	=40	=40	=40	=40	=40	=40
1r	.	(2GG-/	.	1A-X	.	1c-X	.	(2e-/	.	1ryy	1ryy	.	1ryy	1ryy	.	(2GG-/	(2ee-\	.	.
.	.	4FF/	.	.	.	.	.	4f/	.	.	.	.	.	.	.	4FF/	4dd-\	.	.
.	.	4EE-/	.	.	.	.	.	4g-/	.	.	.	.	.	.	.	4EE-/	4cc\	.	.
=41	=41	=41	=41	=41	=41	=41	=41	=41	=41	=41	=41	=41	=41	=41	=41	=41	=41	=41	=41
1r	.	2DDn/	.	2F/	.	2c-X/	.	2a-/	.	1ryy	1ryy	.	1ryy	1ryy	.	2DDn/	2bn\	.	.
.	.	2EE-/)	.	2G-/	.	2cn/	.	4cc\)	.	.	.	.	.	.	.	2EE-/	2cc\	.	.
.	.	.	.	.	.	.	.	4b-\	.	.	.	.	.	.	.	.	.	.	.
=42	=42	=42	=42	=42	=42	=42	=42	=42	=42	=42	=42	=42	=42	=42	=42	=42	=42	=42	=42
!LO:TX:b:t=42:color=blue	!	!	!	!	!	!	!	!	!	!	!	!	!	!	!	!	!	!	!
1r	.	(2FF/	.	2A-/	.	(2d-'/	.	(4b-/	.	1ryy	1ryy	.	1ryy	1ryy	.	2FF/	2dd-\	.	.
.	.	.	.	.	.	.	.	4a-/	.	.	.	.	.	.	.	.	.	.	.
.	.	2BB-/	.	2D-/	.	4d-'/	.	4d-/	.	.	.	.	.	.	.	2BB-/	2b-\	.	.
.	.	.	.	.	.	4d-'/)	.	4e-/)	.	.	.	.	.	.	.	.	.	.	.
=43	=43	=43	=43	=43	=43	=43	=43	=43	=43	=43	=43	=43	=43	=43	=43	=43	=43	=43	=43
!	!	!	!	!	!	!	!	!	!	!LO:TX:a:t=52	!	!	!LO:TX:a:t=53	!	!	!	!	!	!
2r	.	2AA-/)	.	1ryy	.	(2d-/	.	(2f/	.	2r	2r	.	1r	1r	.	[2AA-/	[2ff\	.	.
4r	.	4r	.	.	.	4c/)	.	4e-/)	.	4r	4r	.	.	.	.	8AA-/])	8ff\])	.	.
.	.	.	.	.	.	.	.	.	.	.	.	.	.	.	.	8r	8r	.	.
!	!	!	!	!	!	!	!	!	!	!	!	!	!	!	!	!	!LO:TX:a:t=A = B.\npag&colon;110	!	!
4AA-'/	.	4AA-|/	.	.	.	4r	.	4r	.	4AAA-'/	4AA-'/	.	.	.	.	4r	4r	.	.
=44	=44	=44	=44	=44	=44	=44	=44	=44	=44	=44	=44	=44	=44	=44	=44	=44	=44	=44	=44
!	!	!	!	!	!	!	!	!LO:TX:a:B:t=A=:color=red	!	!	!	!	!	!	!	!	!LO:TX:a:B:t=A=:color=red	!	!
2D-^\yy	.	2D-^\yy	.	1ryy	.	2ryy	.	1ryy	.	2DD-^/yy	2D-^/yy	.	2ryy	1ryyyy	.	1ryy	2ryy	.	.
!	!	!	!	!	!	!	!	!	!	!	!	!	!	!	!	!	!LO:TX:a:t=(&colon;8&colon;)	!	!
2F^\yy	.	2FF^/yy	.	.	.	4ryy	py	.	.	2AAA-^/yy	2FF^/yy	.	4ryy	.	.	.	4ryy	.	.
.	.	.	.	.	.	4d-/yy	.	.	.	.	.	.	4d-'/yy	.	.	.	4d-/yy	.	py
=45	=45	=45	=45	=45	=45	=45	=45	=45	=45	=45	=45	=45	=45	=45	=45	=45	=45	=45	=45
2.E-^\yy	.	2.EE-/yy	.	1ryy	.	2g-^/yy	.	2ryy	.	2.GGG-/yy	2.EE-/yy	.	2g-^/yy	1ryy	.	1ryy	2g-^/yy	.	.
!	!	!	!	!	!	!	!	!	!LO:DY:rj	!	!	!	!	!	!	!	!	!	!
.	.	.	.	.	.	2B-/yy	.	4b-\yy	py	.	.	.	[2B-^/yy	.	.	.	[2B-^/yy	.	.
4D-\yy	.	4DD-/yy	.	.	.	.	.	8cc\Lyy	.	4DD-/yy	4ryy	.	.	.	.	.	.	.	.
.	.	.	.	.	.	.	.	8dd-\Jyy	.	.	.	.	.	.	.	.	.	.	.
=46	=46	=46	=46	=46	=46	=46	=46	=46	=46	=46	=46	=46	=46	=46	=46	=46	=46	=46	=46
2.C/yy	.	2CC/yy	.	2ryy	py	4B-/yy	.	2ee-^\yy	.	2.CC/yy	2ryy	.	2B-/]yy	2ee-^\yy	.	2ryy	4B-/]yy	.	.
.	.	.	.	.	.	4ryy	.	.	.	.	.	.	.	.	.	.	4ryy	.	.
.	.	4C/yy	.	2E-/yy	.	2g-^/yy	.	4g-^/yy	.	.	2E-\yy	.	2ryy	2g-^/yy	.	2E-\yy	2ryy	.	.
4BB-/yy	.	4BB-/yy	.	.	.	.	.	8a-/Lyy	.	4BBB-/yy 4BB-yy	.	.	.	.	.	.	.	.	.
.	.	.	.	.	.	.	.	8b-/Jyy	.	.	.	.	.	.	.	.	.	.	.
=47	=47	=47	=47	=47	=47	=47	=47	=47	=47	=47	=47	=47	=47	=47	=47	=47	=47	=47	=47
!	!	!	!	!	!	!	!	!	!	!	!	!	!	!	!LO:DY:rj	!	!	!	!
1AA-yy	.	1AA-yy	.	2A-^/yy	.	1e-yy	.	4.cc\yy	.	1AAA-yy 1AA-yy	2A-^\yy	.	1ryy	2e-/yy	py	2A-^\yy	1ryyyy	.	.
.	.	.	.	.	.	.	.	8b-\yy	.	.	.	.	.	.	.	.	.	.	.
.	.	.	.	2C^/yy	.	.	.	4a-\yy	.	.	2C^/yy	.	.	2ryy	.	[2C^/yy	.	.	.
.	.	.	.	.	.	.	.	4g-\yy	.	.	.	.	.	.	.	.	.	.	.
*	*	*	*	*	*	*	*	*	*	*	*	*	*	*	*	*	*clefF4	*	*
=48	=48	=48	=48	=48	=48	=48	=48	=48	=48	=48	=48	=48	=48	=48	=48	=48	=48	=48	=48
*	*	*	*	*	*	*	*	*	*	*	*	*	*	*	*	*	*2\right	*	*
1AAnyy	.	1AAnyy	.	4C/yy	.	1cyy	.	2.f/yy	sfy	1AAAnyy 1AAnyy	2F\yy	.	2f^/yy	1ryy	.	4C/]yy	2f^\yy	.	.
.	.	.	.	4ryy	.	.	.	.	.	.	.	.	.	.	.	4ryy	.	.	.
.	.	.	.	[2F/yy	sfy	.	.	.	.	.	2ryy	.	2F^/yy	.	.	2ryy	[2F^\yy	.	.
.	.	.	.	.	.	.	.	4e-/yy	.	.	.	.	.	.	.	.	.	.	.
!LO:TX:t=P:barline.color=red:problem	!	!LO:TX:t=P:barline.color=red:problem	!	!LO:TX:t=P:barline.color=red:problem	!	!LO:TX:t=P:barline.color=red:problem	!	!LO:TX:t=P:barline.color=red:problem	!	!	!	!	!	!	!	!	!	!	!
=49	=49	=49	=49	=49	=49	=49	=49	=49	=49	=49	=49	=49	=49	=49	=49	=49	=49	=49	=49
*	*	*	*	*	*	*	*	*	*	*	*	*	*	*	*	*	*^	*	*
!	!	!	!	!	!	!	!	!	!	!	!	!LO:DY:rj	!	!	!LO:DY:rj	!	!	!	!	!
4.BB-/yy	.	4.BB-/yy	.	2F/]yy	.	2.B-/yy	.	2.d-/yy	.	4.BBB-/yy 4.BB-yy	(2.D-^\yy	py	1ryy	(2.d-^/yy	py	1ryy	(2.d-/yy	2F\]yy	.	.
8AA-X/yy	.	8AA-X/yy	.	.	.	.	.	.	.	8AAA-/yy 8AA-yy	.	.	.	.	.	.	.	.	.	.
4GG-|/yy	.	4GG-/yy	.	2G-/yy	.	.	.	.	.	4GGG-/yy 4GG-yy	.	.	.	.	.	.	.	2G-\yy	.	.
!	!	!	!	!	!	!	!	!	!	!LO:TX:b:t=8	!	!	!	!	!	!	!	!	!	!
4ryy	.	4EE-'/yy	.	.	.	4c/yy	.	4e-/yy	.	4EEE-/yy 4EE-yy	4E-\yy	.	.	4e-/yy	.	.	4e-/yy	.	.	.
*	*	*	*	*	*	*	*	*	*	*	*	*	*	*	*	*	*v	*v	*	*
=50	=50	=50	=50	=50	=50	=50	=50	=50	=50	=50	=50	=50	=50	=50	=50	=50	=50	=50	=50
*	*	*	*	*	*	*	*	*	*	*	*	*	*	*	*	*	*^	*	*
*	*	*	*	*	*	*	*	*	*	*	*	*	*	*	*	*	*	*	*below	*
!	!	!	!	!	!	!LO:N:vis=1	!	!	!	!	!	!	!	!	!	!	!	!	!	!LO:DY:rj
1AA-yy	.	1AA-yy	.	4A-^/yy	.	2d-/yy	.	(4f/yy	.	2AAA-/ 2AA-yy	4F\yy	.	1ryyyy	4f/yy	.	1AAA-yy 1AA-yy	2d-/yy	4A-\yy	3	py
.	.	.	.	8G-/Lyy	.	.	.	4g-/yy	.	.	4G-\yy	.	.	4g-/yy	.	.	.	8G-\Lyy	2	.
.	.	.	.	8F/Jyy	.	.	.	.	.	.	.	.	.	.	.	.	.	8F\Jyy	1	.
.	.	.	.	8E-/Lyy	.	4c/yy	.	4a-/)yy	.	2ryy	4A-\yy	.	.	4a-/yy	.	.	4c/yy	8E-\Lyy	2	.
.	.	.	.	8F/Jyy	.	.	.	.	.	.	.	.	.	.	.	.	.	8F\Jyy	1	.
.	.	.	.	[4G-/yy	.	4e-/yy	.	8b-\Lyy	.	.	8B-\Lyy	.	.	8b-\Lyy	.	.	4e-/yy	4G-\yy	2	.
.	.	.	.	.	.	.	.	8cc\Jyy	.	.	8c\Jyy	.	.	8cc\Jyy	.	.	.	.	.	.
*	*	*	*	*	*	*	*	*	*	*	*	*	*	*	*	*	*clefG2	*	*	*
=51	=51	=51	=51	=51	=51	=51	=51	=51	=51	=51	=51	=51	=51	=51	=51	=51	=51	=51	=51	=51
*	*	*	*	*^	*	*	*	*	*	*	*	*	*	*	*	*	*	*	*	*
!	!	!	!	!LO:TX:t=P:problem=brak zakończenia łuku	!	!	!	!	!	!	!	!	!	!	!	!	!	!	!	!	!
2BB--/yy	.	2BB--/yy	.	2G-/]yy	2ryyyy	.	(4d-/yy	.	2.dd-\yy	.	1r@yy	2d-@\)yy	.	1r@yy	2dd-@\)yy	.	2BBB--/yy 2BB--yy	4d-/)yy	2G-\yy	.	.
.	.	.	.	.	.	.	4e-/yy	.	.	.	.	.	.	.	.	.	.	4e-/yy	.	.	.
2AA-/yy	.	2AA-/yy	.	2A-/yy	[>2D-\yy	.	4f/)yy	.	.	.	.	2ryyyy	.	.	2r@yy	.	2AAA-/yy 2AA-yy	4f/yy	2A-\yy	.	.
.	.	.	.	.	.	.	8g-/Lyy	.	4cc-X\yy	.	.	.	.	.	.	.	.	8g-/Lyy	.	.	.
.	.	.	.	.	.	.	8a-/Jyy	.	.	.	.	.	.	.	.	.	.	8a-/Jyy	.	.	.
*	*	*	*	*v	*v	*	*	*	*	*	*	*	*	*	*	*	*	*v	*v	*	*
=52	=52	=52	=52	=52	=52	=52	=52	=52	=52	=52	=52	=52	=52	=52	=52	=52	=52	=52	=52
1GG-yy	.	(2GG-/yy	.	1D-]yy	.	(4a-/yy	.	(4cc-X\yy	.	1r@yy	1r@yy	.	1r@yy	1r@yy	.	1GGG-yy 1GG-yy	(4a-/yy	.	.
.	.	.	.	.	.	4g-/yy	.	4b--\yy	.	.	.	.	.	.	.	.	4g-/yy	.	.
.	.	4AA-/yy	.	.	.	4f/yy	.	4a-/yy	.	.	.	.	.	.	.	.	4f/yy	.	.
!	!	!	!	!	!	!	!	!	!	!	!	!	!	!	!	!	!LO:TX:a:B:t==B:color=red	!	!
.	.	4BB--/)yy	.	.	.	4e-/)yy	.	4g-/)yy	.	.	.	.	.	.	.	.	4e-/)yy	.	.
!LO:TX:t=P:barline.color=brown:problem	!	!LO:TX:t=P:barline.color=brown:problem	!	!LO:TX:t=P:barline.color=brown:problem	!	!LO:TX:t=P:barline.color=brown:problem	!	!LO:TX:t=P:barline.color=brown:problem	!	!	!	!	!	!	!	!	!	!	!
=53	=53	=53	=53	=53	=53	=53	=53	=53	=53	=53	=53	=53	=53	=53	=53	=53	=53	=53	=53
!LO:TX:a:t=col Vcelli	!	!	!	!LO:TX:a:t=divisi	!	!	!LO:DY:t=p.:rj	!	!LO:DY:t=p.:rj	!	!	!	!	!	!	!	!	!	!LO:DY:rj
4D-\yy	.	4D-\	.	[>1F [>1A-	.	(4f/	p	(4a-/	p	1r	1r	.	1r	1r	.	[>1DD- [>1D-	[>1F [>1A-	.	p
4D-\yy	.	4D-\	.	.	.	4d-/)	.	4f/)	.	.	.	.	.	.	.	.	.	.	.
4D-\yy	.	4D-\	.	.	.	4f'/	.	4a-'/	.	.	.	.	.	.	.	.	.	.	.
4D-\yy	.	4D-\	.	.	.	4f'/	.	4a-'/	.	.	.	.	.	.	.	.	.	.	.
=54	=54	=54	=54	=54	=54	=54	=54	=54	=54	=54	=54	=54	=54	=54	=54	=54	=54	=54	=54
*	*	*rep	*	*	*	*	*	*	*	*	*	*	*	*	*	*rep	*rep	*	*
4D-\yy	.	4D-\	.	1F] 1A-]	.	4f/	.	4a-/	.	1r	1r	.	1r	1r	.	1DD-_> 1D-_>	1F_< 1A-]	.	.
4D-\yy	.	4D-\	.	.	.	4f/	.	4a-/	.	.	.	.	.	.	.	.	.	.	.
4D-\yy	.	4D-\	.	.	.	4f/	.	4a-/	.	.	.	.	.	.	.	.	.	.	.
4D-\yy	.	4D-\	.	.	.	4f/	.	4a-/	.	.	.	.	.	.	.	.	.	.	.
*	*	*Xrep	*	*	*	*	*	*	*	*	*	*	*	*	*	*Xrep	*Xrep	*	*
=55	=55	=55	=55	=55	=55	=55	=55	=55	=55	=55	=55	=55	=55	=55	=55	=55	=55	=55	=55
*	*	*rep	*	*	*	*	*	*	*	*	*	*	*	*	*	*rep	*	*	*
4D-\yy	.	4D-\	.	[>1F [>1An	.	(4f/	.	(4an/	.	1r	1r	.	1r	1r	.	1DD-_> 1D-_>	1F_> [>1An	.	.
4D-\yy	.	4D-\	.	.	.	4d-/)	.	4f/)	.	.	.	.	.	.	.	.	.	.	.
4D-\yy	.	4D-\	.	.	.	4f/	.	4a/	.	.	.	.	.	.	.	.	.	.	.
4D-\yy	.	4D-\	.	.	.	4f/	.	4a/	.	.	.	.	.	.	.	.	.	.	.
*	*	*Xrep	*	*	*	*	*	*	*	*	*	*	*	*	*	*Xrep	*	*	*
=56	=56	=56	=56	=56	=56	=56	=56	=56	=56	=56	=56	=56	=56	=56	=56	=56	=56	=56	=56
*	*	*rep	*	*	*	*	*	*	*	*	*	*	*	*	*	*rep	*	*	*
!	!	!	!	!	!	!	!	!	!	!	!	!	!	!	!	!	!LO:TX:a:t=x:color=red	!	!
4D-\yy	.	4D-\	.	1F] 1A]	.	4f/	.	4an/	.	1r	1r	.	1r	1r	.	1DD-] 1D-]	1F] 1A]	.	.
4D-\yy	.	4D-\	.	.	.	4f/	.	4a/	.	.	.	.	.	.	.	.	.	.	.
4D-\yy	.	4D-\	.	.	.	4f/	.	4a/	.	.	.	.	.	.	.	.	.	.	.
4D-\yy	.	4D-\	.	.	.	4f/	.	4a/	.	.	.	.	.	.	.	.	.	.	.
*	*	*Xrep	*	*	*	*	*	*	*	*	*	*	*	*	*	*Xrep	*	*	*
!!LO:PB:g=original
*	*	*	*	*	*	*	*	*	*	*	*	*	*	*	*	*	*clefG2	*	*
=57	=57	=57	=57	=57	=57	=57	=57	=57	=57	=57	=57	=57	=57	=57	=57	=57	=57	=57	=57
*	*	*	*	*^	*	*	*	*	*	*	*	*	*	*	*	*	*	*	*
!	!	!LO:TX:a:t=col CB.	!	!	!	!	!	!	!	!	!	!	!	!	!	!	!	!	!	!
!	!	!	!	!	!	!	!	!	!	!	!	!	!	!	!	!	!	!LO:TX:a:t=x:color=red	!	!
4D-\	.	4D-\yy	.	4B-/	4F\	.	4f/	.	4b-\	.	4r	4r	ff	2r	2r	.	1r	4a-/	.	.
!	!	!	!	!LO:ART:color=blue	!	!	!	!	!	!	!	!	!	!	!	!	!	!	!	!
4F^\	ff	4F^\yy	ffy	4F^>/	4F\	.	4f/	.	4f\	.	4FF^^/	4F^^\	.	.	.	.	.	4r	.	.
!	!	!	!	!	!	!LO:DY:rj	!	!LO:DY:rj	!	!LO:DY:rj	!	!	!	!	!	!LO:DY:rj	!	!LO:TX:a:t=(&colon;G. j.	!	!
4D-^\	.	4D-^\yy	.	4D-^>/	2ryy	ff	4f'/	ff	4b-|\	ff	4DD-^^/	4D-^^\	.	4B-^^>/	4b-^^\	ff	.	4B-'/ 4b-	.	.
*	*	*	*	*	*	*	*	*	*	*	*	*ped	*	*	*	*	*	*	*	*
4BB-^\	.	4BB-^\yy	.	4B-^>\	.	.	4f'/ 4b-	.	4dd-|\	.	4BBB-^^/	4BB-^^\	.	4d-^^>/	4cc^^\	.	.	4d-'/ 4dd-	.	.
*	*	*	*	*v	*v	*	*	*	*	*	*	*	*	*	*	*	*	*	*	*
=58	=58	=58	=58	=58	=58	=58	=58	=58	=58	=58	=58	=58	=58	=58	=58	=58	=58	=58	=58
*	*	*	*	*	*	*	*	*	*	*	*	*	*	*ped	*	*	*	*	*
*	*	*	*	*	*	*	*	*	*	*tremolo	*tremolo	*	*	*	*	*	*	*	*
!	!	!	!	!	!	!	!LO:HP:color=green	!	!LO:HP:color=green	!	!	!	!	!	!	!	!	!	!
4E-^\	.	4E-^\yy	.	4E-^/	.	1an	sff >]	(>1e- 1cc	sff > ]]	32BBB-/LLL	32C\LLL 32E- 32An	sff	1c 1e- 1g-	1an 1cc	sff	1E- 1An 1c	1e- 1g-X 1an 1cc	.	.
.	.	.	.	.	.	.	.	.	.	32BB-/	32C\ 32E- 32An	.	.	.	.	.	.	.	.
.	.	.	.	.	.	.	.	.	.	32BBB-/	32C\ 32E- 32An	.	.	.	.	.	.	.	.
.	.	.	.	.	.	.	.	.	.	32BB-/	32C\ 32E- 32An	.	.	.	.	.	.	.	.
.	.	.	.	.	.	.	.	.	.	32BBB-/	32C\ 32E- 32An	.	.	.	.	.	.	.	.
.	.	.	.	.	.	.	.	.	.	32BB-/	32C\ 32E- 32An	.	.	.	.	.	.	.	.
.	.	.	.	.	.	.	.	.	.	32BBB-/	32C\ 32E- 32An	.	.	.	.	.	.	.	.
.	.	.	.	.	.	.	.	.	.	32BB-/	32C\ 32E- 32An	.	.	.	.	.	.	.	.
4G-^\	.	4G-^\yy	.	4G-^/	.	.	.	.	.	32BBB-/	32C\ 32E- 32An	.	.	.	.	.	.	.	.
.	.	.	.	.	.	.	.	.	.	32BB-/	32C\ 32E- 32An	.	.	.	.	.	.	.	.
.	.	.	.	.	.	.	.	.	.	32BBB-/	32C\ 32E- 32An	.	.	.	.	.	.	.	.
.	.	.	.	.	.	.	.	.	.	32BB-/	32C\ 32E- 32An	.	.	.	.	.	.	.	.
.	.	.	.	.	.	.	.	.	.	32BBB-/	32C\ 32E- 32An	.	.	.	.	.	.	.	.
.	.	.	.	.	.	.	.	.	.	32BB-/	32C\ 32E- 32An	.	.	.	.	.	.	.	.
.	.	.	.	.	.	.	.	.	.	32BBB-/	32C\ 32E- 32An	.	.	.	.	.	.	.	.
.	.	.	.	.	.	.	.	.	.	32BB-/JJJ	32C\ 32E- 32An	.	.	.	.	.	.	.	.
*	*	*	*	*	*	*	*	*	*	*rep	*	*	*	*	*	*	*	*	*
4F^\	.	4F^\yy	.	4F^/	.	.	.	.	.	32BBB-/LLL	32C\ 32E- 32An	.	.	.	.	.	.	.	.
.	.	.	.	.	.	.	.	.	.	32BB-/	32C\ 32E- 32An	.	.	.	.	.	.	.	.
.	.	.	.	.	.	.	.	.	.	32BBB-/	32C\ 32E- 32An	.	.	.	.	.	.	.	.
.	.	.	.	.	.	.	.	.	.	32BB-/	32C\ 32E- 32An	.	.	.	.	.	.	.	.
.	.	.	.	.	.	.	.	.	.	32BBB-/	32C\ 32E- 32An	.	.	.	.	.	.	.	.
.	.	.	.	.	.	.	.	.	.	32BB-/	32C\ 32E- 32An	.	.	.	.	.	.	.	.
.	.	.	.	.	.	.	.	.	.	32BBB-/	32C\ 32E- 32An	.	.	.	.	.	.	.	.
.	.	.	.	.	.	.	.	.	.	32BB-/	32C\ 32E- 32An	.	.	.	.	.	.	.	.
4E-^\	.	4E-^\yy	.	4E-^/	.	.	.	.	.	32BBB-/	32C\ 32E- 32An	.	.	.	.	.	.	.	.
.	.	.	.	.	.	.	.	.	.	32BB-/	32C\ 32E- 32An	.	.	.	.	.	.	.	.
.	.	.	.	.	.	.	.	.	.	32BBB-/	32C\ 32E- 32An	.	.	.	.	.	.	.	.
.	.	.	.	.	.	.	.	.	.	32BB-/	32C\ 32E- 32An	.	.	.	.	.	.	.	.
.	.	.	.	.	.	.	.	.	.	32BBB-/	32C\ 32E- 32An	.	.	.	.	.	.	.	.
.	.	.	.	.	.	.	.	.	.	32BB-/	32C\ 32E- 32An	.	.	.	.	.	.	.	.
.	.	.	.	.	.	.	.	.	.	32BBB-/	32C\ 32E- 32An	.	.	.	.	.	.	.	.
.	.	.	.	.	.	.	.	.	.	32BB-/JJJ	32C\JJJ 32E- 32An	.	.	.	.	.	.	.	.
*	*	*	*	*	*	*	*	*	*	*Xrep	*	*	*	*	*	*	*	*	*
*	*	*	*	*	*	*	*	*	*	*Xtremolo	*Xtremolo	*	*	*	*	*	*	*	*
*	*	*	*	*	*	*	*	*	*	*	*	*	*	*Xped	*	*	*	*	*
=59	=59	=59	=59	=59	=59	=59	=59	=59	=59	=59	=59	=59	=59	=59	=59	=59	=59	=59	=59
!LO:ART:color=blue	!	!	!	!	!	!	!	!	!	!	!	!	!	!	!	!	!	!	!
4D-^\	.	4D-^\yy	.	4D-^/	.	4b-\	.	4b-/)	.	4BBB-/	4D-\ 4F 4B-	.	4f/	4b-\	.	4D-\ 4B-	4d-/ 4f 4b-	.	.
!LO:ART:color=blue	!	!	!	!LO:ART:color=blue	!	!	!	!	!	!	!	!	!	!	!	!	!	!	!
4F^\	.	4F^\yy	.	4F^/	.	4r@	.	4r@	.	4FF^^>/	4F^^\	.	4r	4r	.	4r	4r	.	.
!LO:ART:color=blue	!	!	!	!LO:ART:color=blue	!	!	!LO:DY:color=green:rj	!	!LO:DY:color=green:rj	!	!	!	!	!	!	!	!	!	!
4D-^\	.	4D-^\yy	.	4D-^/	.	4f'/	f	4b-|\	f	4DD-^^>/	4D-^^\	.	2ryy	4b-^^\	.	2r	4B-'/ 4b-	.	.
*	*	*	*	*	*	*	*	*	*	*	*ped	*	*	*	*	*	*	*	*
!LO:ART:color=blue	!	!	!	!	!	!	!	!	!	!	!	!	!	!	!	!	!	!	!
4BB-^\	.	4BB-^\yy	.	4B-@^/	.	4f'/ 4b-	.	4dd-|\	.	4BBB-^^>/	4BB-^^\	.	.	4dd-^^\	.	.	4d-'/ 4dd-	.	.
=60	=60	=60	=60	=60	=60	=60	=60	=60	=60	=60	=60	=60	=60	=60	=60	=60	=60	=60	=60
*	*	*	*	*	*	*	*	*	*	*tremolo	*tremolo	*	*	*	*	*	*	*	*
!LO:ART:color=blue	!	!	!	!	!	!	!LO:HP:color=green	!	!LO:HP:color=green	!	!	!	!	!	!LO:DY:color=blue	!	!	!	!
4E-^\	.	4E-^\yy	.	4E-^/	.	1an	sff >]	(1e- 1cc	sff > ]]	32BBB-/LLL 32BB-	32C\LLL 32E- 32An	sff	1c 1e- 1g-	1an 1cc	sff	1E- 1An 1c	1e- 1g-X 1an 1cc	.	.
.	.	.	.	.	.	.	.	.	.	32BBB-/ 32BB-	32C\ 32E- 32A	.	.	.	.	.	.	.	.
.	.	.	.	.	.	.	.	.	.	32BBB-/ 32BB-	32C\ 32E- 32A	.	.	.	.	.	.	.	.
.	.	.	.	.	.	.	.	.	.	32BBB-/ 32BB-	32C\ 32E- 32A	.	.	.	.	.	.	.	.
.	.	.	.	.	.	.	.	.	.	32BBB-/ 32BB-	32C\ 32E- 32A	.	.	.	.	.	.	.	.
.	.	.	.	.	.	.	.	.	.	32BBB-/ 32BB-	32C\ 32E- 32A	.	.	.	.	.	.	.	.
.	.	.	.	.	.	.	.	.	.	32BBB-/ 32BB-	32C\ 32E- 32A	.	.	.	.	.	.	.	.
.	.	.	.	.	.	.	.	.	.	32BBB-/ 32BB-	32C\ 32E- 32A	.	.	.	.	.	.	.	.
!LO:ART:color=blue	!	!	!	!	!	!	!	!	!	!	!	!	!	!	!	!	!	!	!
4G-^\	.	4G-^\yy	.	4G-^/	.	.	.	.	.	32BBB-/ 32BB-	32C\ 32E- 32A	.	.	.	.	.	.	.	.
.	.	.	.	.	.	.	.	.	.	32BBB-/ 32BB-	32C\ 32E- 32A	.	.	.	.	.	.	.	.
.	.	.	.	.	.	.	.	.	.	32BBB-/ 32BB-	32C\ 32E- 32A	.	.	.	.	.	.	.	.
.	.	.	.	.	.	.	.	.	.	32BBB-/ 32BB-	32C\ 32E- 32A	.	.	.	.	.	.	.	.
.	.	.	.	.	.	.	.	.	.	32BBB-/ 32BB-	32C\ 32E- 32A	.	.	.	.	.	.	.	.
.	.	.	.	.	.	.	.	.	.	32BBB-/ 32BB-	32C\ 32E- 32A	.	.	.	.	.	.	.	.
.	.	.	.	.	.	.	.	.	.	32BBB-/ 32BB-	32C\ 32E- 32A	.	.	.	.	.	.	.	.
.	.	.	.	.	.	.	.	.	.	32BBB-/ 32BB-	32C\ 32E- 32A	.	.	.	.	.	.	.	.
!LO:ART:color=blue	!	!	!	!	!	!	!	!	!	!	!	!	!	!	!	!	!	!	!
4F^\	.	4F^\yy	.	4F^/	.	.	.	.	.	32BBB-/ 32BB-	32C\ 32E- 32A	.	.	.	.	.	.	.	.
.	.	.	.	.	.	.	.	.	.	32BBB-/ 32BB-	32C\ 32E- 32A	.	.	.	.	.	.	.	.
.	.	.	.	.	.	.	.	.	.	32BBB-/ 32BB-	32C\ 32E- 32A	.	.	.	.	.	.	.	.
.	.	.	.	.	.	.	.	.	.	32BBB-/ 32BB-	32C\ 32E- 32A	.	.	.	.	.	.	.	.
.	.	.	.	.	.	.	.	.	.	32BBB-/ 32BB-	32C\ 32E- 32A	.	.	.	.	.	.	.	.
.	.	.	.	.	.	.	.	.	.	32BBB-/ 32BB-	32C\ 32E- 32A	.	.	.	.	.	.	.	.
.	.	.	.	.	.	.	.	.	.	32BBB-/ 32BB-	32C\ 32E- 32A	.	.	.	.	.	.	.	.
.	.	.	.	.	.	.	.	.	.	32BBB-/ 32BB-	32C\ 32E- 32A	.	.	.	.	.	.	.	.
!LO:ART:color=blue	!	!	!	!	!	!	!	!	!	!	!	!	!	!	!	!	!	!	!
4E-^\	.	4E-^\yy	.	4E-^/	.	.	.	.	.	32BBB-/ 32BB-	32C\ 32E- 32A	.	.	.	.	.	.	.	.
.	.	.	.	.	.	.	.	.	.	32BBB-/ 32BB-	32C\ 32E- 32A	.	.	.	.	.	.	.	.
.	.	.	.	.	.	.	.	.	.	32BBB-/ 32BB-	32C\ 32E- 32A	.	.	.	.	.	.	.	.
.	.	.	.	.	.	.	.	.	.	32BBB-/ 32BB-	32C\ 32E- 32A	.	.	.	.	.	.	.	.
.	.	.	.	.	.	.	.	.	.	32BBB-/ 32BB-	32C\ 32E- 32A	.	.	.	.	.	.	.	.
.	.	.	.	.	.	.	.	.	.	32BBB-/ 32BB-	32C\ 32E- 32A	.	.	.	.	.	.	.	.
.	.	.	.	.	.	.	.	.	.	32BBB-/ 32BB-	32C\ 32E- 32A	.	.	.	.	.	.	.	.
.	.	.	.	.	.	.	.	.	.	32BBB-/JJJ 32BB-	32C\JJJ 32E- 32A	.	.	.	.	.	.	.	.
*	*	*	*	*	*	*	*	*	*	*Xtremolo	*Xtremolo	*	*	*	*	*	*	*	*
=61	=61	=61	=61	=61	=61	=61	=61	=61	=61	=61	=61	=61	=61	=61	=61	=61	=61	=61	=61
!LO:ART:color=blue	!	!	!	!	!	!	!LO:DY:color=green	!	!LO:DY:color=green	!	!	!	!	!	!	!	!	!	!
4D-^\	.	4D-^\	.	4D-^/	.	4b-\	f	4b-\)	f	4BBB-/ 4BB-	4D-\ 4F 4B-	.	4f/	4b-\	.	4D-\ 4B-	4d-/ 4f 4b-	.	.
4BB-^\	.	4BB-^/	.	4B-^\	.	4B-^/	.	4b-^\	.	4BBB-^^>/	4BB-^^>/	.	4B-^^>/	4b-^^\	.	4BB-\ 4B-	4b-\	.	.
4C^\	.	4C^/	.	4c^\	.	4c^/	.	4cc^\	.	4CC^^>/	4C^^>/	.	4c^^>/	4cc^^\	.	4C\ 4c	4cc\	.	.
4D-^\	.	4D-^/	.	4d-^\	.	4d-^/	.	4dd-^\	.	4DD-^^>/	4D-^^>/	.	4d-^^>/	4dd-^^\	.	4D-\ 4d-	4dd-\	.	.
=62	=62	=62	=62	=62	=62	=62	=62	=62	=62	=62	=62	=62	=62	=62	=62	=62	=62	=62	=62
*	*	*	*	*	*	*	*	*	*	*	*ped	*	*	*ped	*	*	*	*	*
1E-	.	4E-^\	.	4e-^\	.	4e-^/	.	4ee-^\	.	2.EE-^^>/	[2.E-^^\	.	2.e-^^>/	2.ee-^^\	.	2.E-\	[2.e-/ [2.ee-	.	.
.	.	4E-|\	.	4E-'/	.	4e-|/	.	4e-'/	.	.	.	.	.	.	.	.	.	.	.
.	.	4E-|\	.	4E-'/	.	4e-|/	.	4e-'/	.	.	.	.	.	.	.	.	.	.	.
!	!	!LO:ART:color=blue	!	!LO:TX:t=P:problem=mixed beam	!	!	!	!	!	!	!	!	!	!LO:TX:t=P:problem=mixed beam	!	!	!	!	!
.	.	8E-|\L	.	8E-/L	.	8e-|/L	.	8e-|</L	.	8EE-/L	8E-\L]	.	4r	8ee-\L	.	8E-\L	8e-/L] 8ee-]	.	.
*	*	*	*	*	*	*	*	*	*	*coll8ba	*	*	*	*	*	*	*	*	*
!	!	!	!	!	!	!	!	!	!	!LO:ART:color=blue	!LO:ART:color=blue	!	!	!	!	!	!	!	!
!	!	!	!	!LO:ART:color=blue	!	!	!	!	!	!LO:TX:b:t=8	!	!	!	!	!	!	!	!	!
.	.	8e-\J	.	8e-|\J	.	8e-|/J	.	8e-|</J	.	8EEE-|>/Jyy 8EE-	8E-|>\J	.	.	8e-|</J	.	8E-\J	8e-|/J	.	.
*	*	*	*	*	*	*	*	*	*	*	*	*	*	*	*	*	*	*	*
=63	=63	=63	=63	=63	=63	=63	=63	=63	=63	=63	=63	=63	=63	=63	=63	=63	=63	=63	=63
!	!	!	!	!	!	!	!	!	!	!LO:TX:b:t=8	!	!	!	!	!	!	!	!	!
4e-^\	.	4e-^\	.	4e-^\	.	4e-^/	.	4e-^/	.	2EEE-/yy 2EE-	2E-^^\	.	1ryy	2e-^^>/	.	[2EE-/ [2E-	[<2e-^^>/	.	.
4E-\	.	4E-|\	.	4E-'/	.	4r	.	4r	.	.	.	.	.	.	.	.	.	.	.
!	!	!	!	!	!	!	!	!	!	!LO:TX:b:t=8	!	!	!	!	!	!	!	!	!
4E-\	.	4E-|\	.	4E-'/	.	2r	.	2r	.	2EEE-/yy 2EE-	2E-^^\	.	.	2e-^^>/	.	(>2EE-/_ 2E-]	2e-^^>/_>	.	.
4E-\	.	4E-|\	.	4E-'/	.	.	.	.	.	.	.	.	.	.	.	.	.	.	.
=64	=64	=64	=64	=64	=64	=64	=64	=64	=64	=64	=64	=64	=64	=64	=64	=64	=64	=64	=64
!	!	!	!LO:DY:rj	!LO:TX:t=P:problem=łuk do pauzy	!LO:DY:rj	!	!	!	!	!LO:TX:b:t=8	!	!	!	!	!	!	!	!	!
4E-\	.	(>1BB-^	p	1G-^	p	1r	.	1r	.	[<1EEE-^^>yy 1EE-	[1E-^^	.	1ryy	[<1e-^^>	.	1EE-_<) [>1BB- N[>1G-	1e-^^>_>	.	.
4E-\	.	.	.	.	.	.	.	.	.	.	.	.	.	.	.	.	.	.	.
4E-\	.	.	.	.	.	.	.	.	.	.	.	.	.	.	.	.	.	.	.
4E-\	.	.	.	.	.	.	.	.	.	.	.	.	.	.	.	.	.	.	.
*	*	*	*	*	*	*	*	*	*	*Xcoll8ba	*	*	*	*	*	*	*	*	*
!!LO:PB:g=original
=65	=65	=65	=65	=65	=65	=65	=65	=65	=65	=65	=65	=65	=65	=65	=65	=65	=65	=65	=65
!	!	!LO:TX:a:t=col CB	!	!	!	!	!	!	!	!LO:TX:t=P:problem=brak zakończenia łuku	!	!	!	!	!	!	!	!	!
4E-\	.	4E-\)yy	.	2r	.	2r	p	2r	p	1EE-]	1E-]	.	1ryy	2e-/]	.	1EE-_ 1BB-]	4G-</N] 4e-]	.	.
!	!	!	!	!	!	!	!	!	!	!	!	!	!	!	!	!	!LO:TX:b:t=(&colon;8&colon;)	!	!
4D-\	.	4D-\yy	.	.	.	.	.	.	.	.	.	.	.	.	.	.	4r	.	.
4C\	.	4C\yy	.	4G-|/	.	4e-'/	.	4e-|/	.	.	.	.	.	2r	.	.	2r	.	p
*	*	*	*	*	*	*	*	*	*	*	*Xped	*	*	*	*	*	*	*	*
4BB-\	.	4BB-\yy	.	4E-|/	.	4e-|/	.	4g-|/	.	.	.	.	.	.	.	.	.	.	.
*	*	*	*	*	*	*	*	*	*	*	*	*	*	*	*	*	*clefF4	*	*
=66	=66	=66	=66	=66	=66	=66	=66	=66	=66	=66	=66	=66	=66	=66	=66	=66	=66	=66	=66
*	*	*	*	*	*	*	*	*	*	*tremolo	*ped	*	*	*	*	*	*	*	*
!	!	!	!	!	!	!	!	!	!	!LO:TX:t=P:problem=mixed beam	!	!LO:DY:b=2:rj	!	!	!	!	!	!	!
4AAn/	.	4AAn/yy	.	1F^	.	1c^>	.	1f^	.	32EE-^/LLL	[1E-^	pp	1ryy	1r	.	1EE-_	1AAn 1C 1F	.	.
.	.	.	.	.	.	.	.	.	.	32E-\	.	.	.	.	.	.	.	.	.
.	.	.	.	.	.	.	.	.	.	32EE-/	.	.	.	.	.	.	.	.	.
.	.	.	.	.	.	.	.	.	.	32E-\	.	.	.	.	.	.	.	.	.
.	.	.	.	.	.	.	.	.	.	32EE-/	.	.	.	.	.	.	.	.	.
.	.	.	.	.	.	.	.	.	.	32E-\	.	.	.	.	.	.	.	.	.
.	.	.	.	.	.	.	.	.	.	32EE-/	.	.	.	.	.	.	.	.	.
.	.	.	.	.	.	.	.	.	.	32E-\	.	.	.	.	.	.	.	.	.
4FF/	.	4FF/yy	.	.	.	.	.	.	.	32EE-/	.	.	.	.	.	.	.	.	.
.	.	.	.	.	.	.	.	.	.	32E-\	.	.	.	.	.	.	.	.	.
.	.	.	.	.	.	.	.	.	.	32EE-/	.	.	.	.	.	.	.	.	.
.	.	.	.	.	.	.	.	.	.	32E-\	.	.	.	.	.	.	.	.	.
.	.	.	.	.	.	.	.	.	.	32EE-/	.	.	.	.	.	.	.	.	.
.	.	.	.	.	.	.	.	.	.	32E-\	.	.	.	.	.	.	.	.	.
.	.	.	.	.	.	.	.	.	.	32EE-/	.	.	.	.	.	.	.	.	.
.	.	.	.	.	.	.	.	.	.	32E-\JJJ	.	.	.	.	.	.	.	.	.
*	*	*	*	*	*	*	*	*	*	*rep	*	*	*	*	*	*	*	*	*
4GG-/	.	4GG-/yy	.	.	.	.	.	.	.	32EE-/LLL	.	.	.	.	.	.	.	.	.
.	.	.	.	.	.	.	.	.	.	32E-\	.	.	.	.	.	.	.	.	.
.	.	.	.	.	.	.	.	.	.	32EE-/	.	.	.	.	.	.	.	.	.
.	.	.	.	.	.	.	.	.	.	32E-\	.	.	.	.	.	.	.	.	.
.	.	.	.	.	.	.	.	.	.	32EE-/	.	.	.	.	.	.	.	.	.
.	.	.	.	.	.	.	.	.	.	32E-\	.	.	.	.	.	.	.	.	.
.	.	.	.	.	.	.	.	.	.	32EE-/	.	.	.	.	.	.	.	.	.
.	.	.	.	.	.	.	.	.	.	32E-\	.	.	.	.	.	.	.	.	.
4AA/	.	4AA/yy	.	.	.	.	.	.	.	32EE-/	.	.	.	.	.	.	.	.	.
.	.	.	.	.	.	.	.	.	.	32E-\	.	.	.	.	.	.	.	.	.
.	.	.	.	.	.	.	.	.	.	32EE-/	.	.	.	.	.	.	.	.	.
.	.	.	.	.	.	.	.	.	.	32E-\	.	.	.	.	.	.	.	.	.
.	.	.	.	.	.	.	.	.	.	32EE-/	.	.	.	.	.	.	.	.	.
.	.	.	.	.	.	.	.	.	.	32E-\	.	.	.	.	.	.	.	.	.
.	.	.	.	.	.	.	.	.	.	32EE-/	.	.	.	.	.	.	.	.	.
.	.	.	.	.	.	.	.	.	.	32E-\JJJ	.	.	.	.	.	.	.	.	.
*	*	*	*	*	*	*	*	*	*	*Xrep	*	*	*	*	*	*	*	*	*
*	*	*	*	*	*	*	*	*	*	*Xtremolo	*	*	*	*	*	*	*	*	*
=67	=67	=67	=67	=67	=67	=67	=67	=67	=67	=67	=67	=67	=67	=67	=67	=67	=67	=67	=67
4BB-/	.	4BB-/yy	.	4G-/	.	4B-/	.	4e-/	.	1EE-	1E-]	.	1ryy	1r	.	1EE-_	2BB-/ 2E- 2G-	.	.
4D-/	.	4D-/yy	.	4r	.	4r	.	4r	.	.	.	.	.	.	.	.	.	.	.
4C/	.	4C/yy	.	4G-|/	.	4e-'/	.	4e-|/	.	.	.	.	.	.	.	.	2r	.	.
*	*	*	*	*	*	*	*	*	*	*	*Xped	*	*	*	*	*	*	*	*
4BB-/	.	4BB-/yy	.	4E-|/	.	4e-'/	.	4g-|/	.	.	.	.	.	.	.	.	.	.	.
=68	=68	=68	=68	=68	=68	=68	=68	=68	=68	=68	=68	=68	=68	=68	=68	=68	=68	=68	=68
*	*	*	*	*	*	*	*	*	*	*tremolo	*ped	*	*	*	*	*	*	*	*
!	!	!	!	!	!	!	!	!	!	!LO:TX:t=P:problem=mixed beam	!	!	!	!	!	!	!	!	!
4AAn/	.	4AAn/yy	.	1F^	.	1c	.	1f^	.	32EE-^/LLL	1E-	.	1ryy	1r	.	1EE-_	1AAn 1C 1F	.	.
.	.	.	.	.	.	.	.	.	.	32E-\	.	.	.	.	.	.	.	.	.
.	.	.	.	.	.	.	.	.	.	32EE-/	.	.	.	.	.	.	.	.	.
.	.	.	.	.	.	.	.	.	.	32E-\	.	.	.	.	.	.	.	.	.
.	.	.	.	.	.	.	.	.	.	32EE-/	.	.	.	.	.	.	.	.	.
.	.	.	.	.	.	.	.	.	.	32E-\	.	.	.	.	.	.	.	.	.
.	.	.	.	.	.	.	.	.	.	32EE-/	.	.	.	.	.	.	.	.	.
.	.	.	.	.	.	.	.	.	.	32E-\	.	.	.	.	.	.	.	.	.
4FF/	.	4FF/yy	.	.	.	.	.	.	.	32EE-/	.	.	.	.	.	.	.	.	.
.	.	.	.	.	.	.	.	.	.	32E-\	.	.	.	.	.	.	.	.	.
.	.	.	.	.	.	.	.	.	.	32EE-/	.	.	.	.	.	.	.	.	.
.	.	.	.	.	.	.	.	.	.	32E-\	.	.	.	.	.	.	.	.	.
.	.	.	.	.	.	.	.	.	.	32EE-/	.	.	.	.	.	.	.	.	.
.	.	.	.	.	.	.	.	.	.	32E-\	.	.	.	.	.	.	.	.	.
.	.	.	.	.	.	.	.	.	.	32EE-/	.	.	.	.	.	.	.	.	.
.	.	.	.	.	.	.	.	.	.	32E-\JJJ	.	.	.	.	.	.	.	.	.
*	*	*	*	*	*	*	*	*	*	*rep	*	*	*	*	*	*	*	*	*
4GG-/	.	4GG-/yy	.	.	.	.	.	.	.	32EE-/LLL	.	.	.	.	.	.	.	.	.
.	.	.	.	.	.	.	.	.	.	32E-\	.	.	.	.	.	.	.	.	.
.	.	.	.	.	.	.	.	.	.	32EE-/	.	.	.	.	.	.	.	.	.
.	.	.	.	.	.	.	.	.	.	32E-\	.	.	.	.	.	.	.	.	.
.	.	.	.	.	.	.	.	.	.	32EE-/	.	.	.	.	.	.	.	.	.
.	.	.	.	.	.	.	.	.	.	32E-\	.	.	.	.	.	.	.	.	.
.	.	.	.	.	.	.	.	.	.	32EE-/	.	.	.	.	.	.	.	.	.
.	.	.	.	.	.	.	.	.	.	32E-\	.	.	.	.	.	.	.	.	.
4AA/	.	4AA/yy	.	.	.	.	.	.	.	32EE-/	.	.	.	.	.	.	.	.	.
.	.	.	.	.	.	.	.	.	.	32E-\	.	.	.	.	.	.	.	.	.
.	.	.	.	.	.	.	.	.	.	32EE-/	.	.	.	.	.	.	.	.	.
.	.	.	.	.	.	.	.	.	.	32E-\	.	.	.	.	.	.	.	.	.
.	.	.	.	.	.	.	.	.	.	32EE-/	.	.	.	.	.	.	.	.	.
.	.	.	.	.	.	.	.	.	.	32E-\	.	.	.	.	.	.	.	.	.
.	.	.	.	.	.	.	.	.	.	32EE-/	.	.	.	.	.	.	.	.	.
.	.	.	.	.	.	.	.	.	.	32E-\JJJ	.	.	.	.	.	.	.	.	.
*	*	*	*	*	*	*	*	*	*	*Xrep	*	*	*	*	*	*	*	*	*
*	*	*	*	*	*	*	*	*	*	*Xtremolo	*	*	*	*	*	*	*	*	*
=69	=69	=69	=69	=69	=69	=69	=69	=69	=69	=69	=69	=69	=69	=69	=69	=69	=69	=69	=69
*	*	*	*	*	*	*	*	*	*	*coll8ba	*Xped	*	*	*	*	*	*	*	*
!	!	!	!	!	!	!	!	!	!	!	!	!	!	!	!LO:DY:rj	!	!	!	!
4BB-\	.	4BB-\yy	.	4G-'/	.	4B-'/	.	4e-'/	.	4EEE-/yy 4EE-	4r	.	1r	4r	p	4EE-/]	4BB-/ 4E- 4G-	.	.
!	!LO:DY:rj	!	!LO:DY:rj	!	!	!	!	!	!	!	!	!	!	!	!	!	!	!	!
4Dn\	p	4Dn\yy	py	4r	.	4r	.	4dn^/	.	4DDDn^/yy 4DDn	4Dn^\	p	.	4dn^/	.	4r	4r	.	.
*	*	*	*	*	*	*	*	*	*	*	*	*	*	*	*	*	*	*	*
4E-\	.	4E-\yy	.	2r	.	2r	.	4e-^/	.	4EEE-^/yy 4EE-	4E-^\	.	.	4e-^/	.	2r	2r	.	.
4F\	.	4F\yy	.	.	.	.	.	4f^/	.	4FFF^/yy 4FF	4F^\	.	.	4f^/	.	.	.	.	.
*	*	*	*	*	*	*	*	*	*	*Xcoll8ba	*	*	*	*	*	*	*	*	*
=70	=70	=70	=70	=70	=70	=70	=70	=70	=70	=70	=70	=70	=70	=70	=70	=70	=70	=70	=70
*	*	*	*	*	*	*	*	*	*	*	*ped	*	*	*ped	*	*	*	*	*
1G-	.	4G-^\	.	4g-^\	.	1r	.	2.g-^/	.	[<2.GGG-/ [<2.GG-	4G-^\	.	1r	2.g-^/	.	1ryy	1r	.	.
.	.	4G-'\	.	4G-/	.	.	.	.	.	.	4G-\	.	.	.	.	.	.	.	.
.	.	4G-'\	.	4G-/	.	.	.	.	.	.	4G-\	.	.	.	.	.	.	.	.
.	.	8G-'\L	.	8G-/L	.	.	.	4r	.	8GGG-/L] 8GG-]	8G-\L	.	.	4r	.	.	.	.	.
.	.	8G-'\J	.	8G-/J	.	.	.	.	.	8GGG-/J 8GG-	8G-|\J	.	.	.	.	.	.	.	.
=71	=71	=71	=71	=71	=71	=71	=71	=71	=71	=71	=71	=71	=71	=71	=71	=71	=71	=71	=71
4G-^\	.	4G-^\	.	4G-^/	.	1r	.	1r	.	2GGG-^/ 2GG-	2G-^\	.	1r	1r	.	1ryy	1r	.	.
4GG-|/	.	4GG-|/	.	4r	.	.	.	.	.	.	.	.	.	.	.	.	.	.	.
4GG-|/	.	4GG-|/	.	2r	.	.	.	.	.	2GGG-^/ 2GG-	2G-^\	.	.	.	.	.	.	.	.
*	*	*	*	*	*	*	*	*	*	*	*Xped	*	*	*	*	*	*	*	*
4GG-|/	.	4GG-|/	.	.	.	.	.	.	.	.	.	.	.	.	.	.	.	.	.
=72	=72	=72	=72	=72	=72	=72	=72	=72	=72	=72	=72	=72	=72	=72	=72	=72	=72	=72	=72
*	*	*	*	*	*	*	*	*	*	*tremolo	*ped	*	*	*	*	*	*	*	*
!	!	!	!LO:DY:rj	!	!LO:DY:t=pp.:rj	!	!LO:DY:t=pp.:rj	!	!	!	!	!LO:DY:rj	!	!	!	!LO:TX:t=P:problem=brak początku łuków	!LO:TX:t=P:problem=brak początku łuków	!	!LO:DY:t=pp.:rj
2GG-/	.	2GG-/	pp	[>1E-	pp	[>1B-	pp	1r	.	32GGG-/LLL	1G-	p	1r	1r	.	[>1GG- [>1BB-	[>1E- [>1B-	.	pp
.	.	.	.	.	.	.	.	.	.	32GG-/	.	.	.	.	.	.	.	.	.
.	.	.	.	.	.	.	.	.	.	32GGG-/	.	.	.	.	.	.	.	.	.
.	.	.	.	.	.	.	.	.	.	32GG-/	.	.	.	.	.	.	.	.	.
.	.	.	.	.	.	.	.	.	.	32GGG-/	.	.	.	.	.	.	.	.	.
.	.	.	.	.	.	.	.	.	.	32GG-/	.	.	.	.	.	.	.	.	.
.	.	.	.	.	.	.	.	.	.	32GGG-/	.	.	.	.	.	.	.	.	.
.	.	.	.	.	.	.	.	.	.	32GG-/	.	.	.	.	.	.	.	.	.
.	.	.	.	.	.	.	.	.	.	32GGG-/	.	.	.	.	.	.	.	.	.
.	.	.	.	.	.	.	.	.	.	32GG-/	.	.	.	.	.	.	.	.	.
.	.	.	.	.	.	.	.	.	.	32GGG-/	.	.	.	.	.	.	.	.	.
.	.	.	.	.	.	.	.	.	.	32GG-/	.	.	.	.	.	.	.	.	.
.	.	.	.	.	.	.	.	.	.	32GGG-/	.	.	.	.	.	.	.	.	.
.	.	.	.	.	.	.	.	.	.	32GG-/	.	.	.	.	.	.	.	.	.
.	.	.	.	.	.	.	.	.	.	32GGG-/	.	.	.	.	.	.	.	.	.
.	.	.	.	.	.	.	.	.	.	32GG-/JJJ	.	.	.	.	.	.	.	.	.
*	*	*	*	*	*	*	*	*	*	*rep	*	*	*	*	*	*	*	*	*
4GG-/	.	4GG-/	.	.	.	.	.	.	.	32GGG-/LLL	.	.	.	.	.	.	.	.	.
.	.	.	.	.	.	.	.	.	.	32GG-/	.	.	.	.	.	.	.	.	.
.	.	.	.	.	.	.	.	.	.	32GGG-/	.	.	.	.	.	.	.	.	.
.	.	.	.	.	.	.	.	.	.	32GG-/	.	.	.	.	.	.	.	.	.
.	.	.	.	.	.	.	.	.	.	32GGG-/	.	.	.	.	.	.	.	.	.
.	.	.	.	.	.	.	.	.	.	32GG-/	.	.	.	.	.	.	.	.	.
.	.	.	.	.	.	.	.	.	.	32GGG-/	.	.	.	.	.	.	.	.	.
.	.	.	.	.	.	.	.	.	.	32GG-/	.	.	.	.	.	.	.	.	.
4AA-/	.	4GG-/	.	.	.	.	.	.	.	32GGG-/	.	.	.	.	.	.	.	.	.
.	.	.	.	.	.	.	.	.	.	32GG-/	.	.	.	.	.	.	.	.	.
.	.	.	.	.	.	.	.	.	.	32GGG-/	.	.	.	.	.	.	.	.	.
.	.	.	.	.	.	.	.	.	.	32GG-/	.	.	.	.	.	.	.	.	.
.	.	.	.	.	.	.	.	.	.	32GGG-/	.	.	.	.	.	.	.	.	.
.	.	.	.	.	.	.	.	.	.	32GG-/	.	.	.	.	.	.	.	.	.
.	.	.	.	.	.	.	.	.	.	32GGG-/	.	.	.	.	.	.	.	.	.
.	.	.	.	.	.	.	.	.	.	32GG-/JJJ	.	.	.	.	.	.	.	.	.
*	*	*	*	*	*	*	*	*	*	*Xrep	*	*	*	*	*	*	*	*	*
*	*	*	*	*	*	*	*	*	*	*Xtremolo	*	*	*	*	*	*	*	*	*
!!LO:PB:g=original
=73	=73	=73	=73	=73	=73	=73	=73	=73	=73	=73	=73	=73	=73	=73	=73	=73	=73	=73	=73
!	!	!LO:TX:b:t=un poco piu lento.	!	!	!	!	!	!	!	!	!	!	!	!	!	!	!	!	!
!	!	!	!	!LO:TX:t=P:problem=zakończenie łuku od dołu	!	!LO:TX:t=P:problem=zakończenie łuku od dołu	!	!	!	!	!	!	!	!	!	!	!	!	!
4GG-/	.	4GG-/	.	4E-/]	.	4B-/]	.	1r	.	4GGG-/	4G-\	.	1r	1r	.	4GG-/] 4BB-]	4E-\] 4B-]	.	.
!	!	!	!	!	!	!LO:TX:b:i:t=un poco\npiu lento.	!	!	!	!	!	!	!	!	!	!	!LO:TX:a:t=un poco piu lento.	!	!
4r	.	4r	.	4r	.	4r	.	.	.	4r	4r	.	.	.	.	4r	4r	.	.
!	!	!	!	!	!LO:DY:rj	!	!	!	!	!	!	!	!	!	!	!	!	!	!
2r	.	2BB-^/	.	2B-/	p	2r	.	.	.	2r	2r	.	.	.	.	2r	2r	.	.
=74	=74	=74	=74	=74	=74	=74	=74	=74	=74	=74	=74	=74	=74	=74	=74	=74	=74	=74	=74
1ryy	.	2E-^\	.	2e-^\	.	1r	.	1r	.	1ryy	1ryy	.	1ryy	1ryy	.	1ryy	1ryy	.	.
.	.	4.BB-/	.	4.B-\	.	.	.	.	.	.	.	.	.	.	.	.	.	.	.
.	.	8E-\	.	8e-\	.	.	.	.	.	.	.	.	.	.	.	.	.	.	.
=75	=75	=75	=75	=75	=75	=75	=75	=75	=75	=75	=75	=75	=75	=75	=75	=75	=75	=75	=75
1ryy	.	4G-\	.	4g-\	.	1r	.	1r	.	1ryy	1ryy	.	1ryy	1ryy	.	1ryy	1ryy	.	.
.	.	4r	.	4r	.	.	.	.	.	.	.	.	.	.	.	.	.	.	.
.	.	4.G-\	.	4.g-\	.	.	.	.	.	.	.	.	.	.	.	.	.	.	.
.	.	8A-\	.	8a-\	.	.	.	.	.	.	.	.	.	.	.	.	.	.	.
=76	=76	=76	=76	=76	=76	=76	=76	=76	=76	=76	=76	=76	=76	=76	=76	=76	=76	=76	=76
1ryy	.	2B-\	.	2b-\	.	1r	.	1r	.	1ryy	1ryy	.	1ryy	1ryy	.	1ryy	1ryy	.	.
.	.	4.A-\	.	4.a-\	.	.	.	.	.	.	.	.	.	.	.	.	.	.	.
.	.	8B-\	.	8b-\	.	.	.	.	.	.	.	.	.	.	.	.	.	.	.
=77	=77	=77	=77	=77	=77	=77	=77	=77	=77	=77	=77	=77	=77	=77	=77	=77	=77	=77	=77
1ryy	.	(4A-\	.	(4a-\	.	1r	.	2r	.	1ryy	1ryy	.	1ryy	1ryy	.	1ryy	1ryy	.	.
.	.	4G-\	.	4g-\)	.	.	.	.	.	.	.	.	.	.	.	.	.	.	.
.	.	2E-\)	.	2r	.	.	.	2e-/	.	.	.	.	.	.	.	.	.	.	.
!LO:TX:t=P:barline.color=brown:problem	!	!LO:TX:t=P:barline.color=brown:problem	!	!LO:TX:t=P:barline.color=brown:problem	!	!LO:TX:t=P:barline.color=brown:problem	!	!LO:TX:t=P:barline.color=brown:problem	!	!	!	!	!	!	!	!	!	!	!
=78	=78	=78	=78	=78	=78	=78	=78	=78	=78	=78	=78	=78	=78	=78	=78	=78	=78	=78	=78
1ryy	.	2G-\	.	1r	.	1r	.	2g-/	.	1ryy	1ryy	.	1ryy	1ryy	.	1ryy	1ryy	.	.
.	.	4.E-\	.	.	.	.	.	4.e-/	.	.	.	.	.	.	.	.	.	.	.
.	.	8G-\	.	.	.	.	.	8g-/	.	.	.	.	.	.	.	.	.	.	.
=79	=79	=79	=79	=79	=79	=79	=79	=79	=79	=79	=79	=79	=79	=79	=79	=79	=79	=79	=79
1ryy	.	4B-\	.	1r	.	1r	.	4b-/	.	1ryy	1ryy	.	1ryy	1ryy	.	1ryy	1ryy	.	.
.	.	4r	.	.	.	.	.	4r	.	.	.	.	.	.	.	.	.	.	.
.	.	4.B-\	.	.	.	.	.	4.b-\	.	.	.	.	.	.	.	.	.	.	.
.	.	8c\	.	.	.	.	.	8cc\	.	.	.	.	.	.	.	.	.	.	.
=80	=80	=80	=80	=80	=80	=80	=80	=80	=80	=80	=80	=80	=80	=80	=80	=80	=80	=80	=80
1ryy	.	2d-^\	.	1r	.	1r	.	2dd-^\	.	1ryy	1ryy	.	1ryy	1ryy	.	1ryy	1ryy	.	.
.	.	4.c\	.	.	.	.	.	4.cc\	.	.	.	.	.	.	.	.	.	.	.
.	.	8d-\	.	.	.	.	.	8dd-\	.	.	.	.	.	.	.	.	.	.	.
=81	=81	=81	=81	=81	=81	=81	=81	=81	=81	=81	=81	=81	=81	=81	=81	=81	=81	=81	=81
1ryy	.	1B-	.	1r	.	1r	.	1b-	.	1ryy	1ryy	.	1ryy	1ryy	.	1ryy	1ryy	.	.
!!LO:PB:g=original
=82	=82	=82	=82	=82	=82	=82	=82	=82	=82	=82	=82	=82	=82	=82	=82	=82	=82	=82	=82
*	*	*	*	*	*	*^	*	*	*	*	*	*	*	*	*	*	*	*	*
!	!LO:DY:rj	!	!LO:DY:rj	!	!LO:DY:rj	!	!	!	!	!	!	!	!	!	!	!	!LO:TX:a:t=(&colon;8&colon;)	!	!	!LO:DY:b=2:rj
1GG-	pp	1GG-	pp	[>1F-X	pp	[>1d-	[<1d-	.	[1B- [1b-	.	1ryy	1ryy	.	1ryy	1ryy	.	[>1BB- [>1D-	1r	.	pp
=83	=83	=83	=83	=83	=83	=83	=83	=83	=83	=83	=83	=83	=83	=83	=83	=83	=83	=83	=83	=83
*	*	*	*	*rep	*	*rep	*rep	*	*rep	*	*	*	*	*	*	*	*rep	*	*	*
(4.GG-^/	.	(4.GG-^/	.	1F-]	.	1d-]	1d-]	.	1B-] 1b-]	.	1ryy	1ryy	.	1ryy	1ryy	.	1BB-] 1D-_>	1ryy	.	.
8GG-'/	.	8GG-'/	.	.	.	.	.	.	.	.	.	.	.	.	.	.	.	.	.	.
4GG-'/	.	4GG-'/	.	.	.	.	.	.	.	.	.	.	.	.	.	.	.	.	.	.
4GG-'/)	.	4GG-'/)	.	.	.	.	.	.	.	.	.	.	.	.	.	.	.	.	.	.
*	*	*	*	*Xrep	*	*Xrep	*Xrep	*	*Xrep	*	*	*	*	*	*	*	*Xrep	*	*	*
*	*	*	*	*	*	*v	*v	*	*	*	*	*	*	*	*	*	*	*	*	*
=84	=84	=84	=84	=84	=84	=84	=84	=84	=84	=84	=84	=84	=84	=84	=84	=84	=84	=84	=84
*	*	*	*	*	*	*	*	*	*	*	*	*	*	*	*	*^	*	*	*
1GG-	.	1GG-	.	(4.F-X^/	.	(4.d-^/	.	(4.b-^/	.	1ryy	1ryy	.	1ryy	1ryy	.	4D-/]	4BB-\	1r	.	.
.	.	.	.	.	.	.	.	.	.	.	.	.	.	.	.	4r	4ryy	.	.	.
.	.	.	.	8F-'/	.	8d-|/	.	8b-'/	.	.	.	.	.	.	.	.	.	.	.	.
.	.	.	.	4F-'/	.	4d-|/	.	4b-'/	.	.	.	.	.	.	.	2r	2ryy	.	.	.
.	.	.	.	4F-'/)	.	4d-|/)	.	4b-'/)	.	.	.	.	.	.	.	.	.	.	.	.
*	*	*	*	*	*	*	*	*	*	*	*	*	*	*	*	*v	*v	*	*	*
=85	=85	=85	=85	=85	=85	=85	=85	=85	=85	=85	=85	=85	=85	=85	=85	=85	=85	=85	=85
!	!	!LO:TX:b:t=leg	!	!LO:TX:b:t=legatiſsim	!	!	!	!LO:TX:b:t=legatiſsimo	!	!	!	!	!	!	!	!	!	!	!
4GG-/	.	(2G-\	.	(>2f-X\	.	2d-/	.	(>2b-/	.	1r	1r	.	1ryy	1ryy	.	1r	1r	.	.
4r	.	.	.	.	.	.	.	.	.	.	.	.	.	.	.	.	.	.	.
2r	.	2GG-/)	.	2An/)	.	2c/	.	2e-/)	.	.	.	.	.	.	.	.	.	.	.
!LO:TX:t=P:barline.color=brown:problem	!	!LO:TX:t=P:barline.color=brown:problem	!	!LO:TX:t=P:barline.color=brown:problem	!	!LO:TX:t=P:barline.color=brown:problem	!	!LO:TX:t=P:barline.color=brown:problem	!	!	!	!	!	!	!	!	!	!	!
=86	=86	=86	=86	=86	=86	=86	=86	=86	=86	=86	=86	=86	=86	=86	=86	=86	=86	=86	=86
!	!	!	!	!	!	!	!	!	!	!	!	!LO:DY:rj	!	!	!	!	!	!	!
(2G-\	.	1AA-	.	1A-X	.	1c-X	.	2e-/	.	(2GG-^/	(2G-^\	pp	1ryy	1ryy	.	(2G-\	1r	.	.
4F\	.	.	.	.	.	.	.	4f/	.	4FF/	4F\	.	.	.	.	4F\	.	.	.
4E-\	.	.	.	.	.	.	.	4g-/	.	4EE-/	4E-\	.	.	.	.	4E-\	.	.	.
=87	=87	=87	=87	=87	=87	=87	=87	=87	=87	=87	=87	=87	=87	=87	=87	=87	=87	=87	=87
4D-\	.	(4DD-/	.	2F/	.	2c-X/	.	4a-/	.	4DD-/	4D-\	.	1ryy	1ryy	.	4D-\	1r	.	.
4Dn\	.	4DDn/	.	.	.	.	.	8r	.	4DDn/	4Dn\	.	.	.	.	4Dn\	.	.	.
.	.	.	.	.	.	.	.	8a-/	.	.	.	.	.	.	.	.	.	.	.
4E-\	.	4EE-/	.	4G-/	.	2cn/	.	4.ccn\	.	4EE-/	4E-\	.	.	.	.	4E-\	.	.	.
4En\	.	4EEn/	.	4Gn/	.	.	.	.	.	4EEn/	4En\	.	.	.	.	4En\	.	.	.
.	.	.	.	.	.	.	.	8b-\	.	.	.	.	.	.	.	.	.	.	.
=88	=88	=88	=88	=88	=88	=88	=88	=88	=88	=88	=88	=88	=88	=88	=88	=88	=88	=88	=88
4F\	.	4FF/	.	2A-/	.	2.d-/	.	(4cc\	.	4FF/	4F\	.	1ryy	1ryy	.	4F\	1r	.	.
4D-\	.	4AA-/	.	.	.	.	.	4b-\	.	4DD-/	4D-\	.	.	.	.	4D-\	.	.	.
4BB-/	.	4D-/	.	4F/	.	.	.	4d-/	.	4BBB-/	4BB-\	.	.	.	.	4BB-/	.	.	.
4GG-/	.	4BB-/)	.	4G-/	.	4d-/	.	4e-/)	.	4GGG-/	4GG-\	.	.	.	.	4GG-/)	.	.	.
=89	=89	=89	=89	=89	=89	=89	=89	=89	=89	=89	=89	=89	=89	=89	=89	=89	=89	=89	=89
1AA-)	.	1AA-	.	1A-	.	2.d-/	.	2.f/	.	1AAA-)	1AA-)	.	1ryy	1ryy	.	1AA-	1r	.	.
.	.	.	.	.	.	4c/	.	4f/	.	.	.	.	.	.	.	.	.	.	.
!!LO:PB:g=original
*	*	*clefC4	*	*	*	*	*	*	*	*	*	*	*	*	*	*	*clefG2	*	*
=90	=90	=90	=90	=90	=90	=90	=90	=90	=90	=90	=90	=90	=90	=90	=90	=90	=90	=90	=90
*	*	*	*	*	*	*	*	*	*	*	*ped	*	*	*ped	*	*	*	*	*
!	!	!	!	!	!	!	!	!LO:TX:a:i:t=non troppo forte.	!	!	!	!	!	!	!	!	!	!	!
!	!	!LO:TX:b:t=non troppo forte.	!	!LO:TX:a:t=(xx)\nviola:color=blue	!	!	!	!LO:TX:a:t=(x)\nv. 1.:color=blue	!	!	!LO:TX:b:t=u. c.	!	!	!LO:TX:b:t=u. c.	!	!	!	!	!LO:DY:t=pp.:rj
!	!	!	!	!	!	!	!	!	!	!	!	!LO:DY:rj	!	!	!LO:DY:rj	!	!	!	!
[1D-	.	2A-^\	.	4A-/	.	4d-/	.	2A-^/	.	2DD-/	2AA-/ 2D- 2F	pp	2A-/	2d-/ 2f	pp	[>1FF [>1AA-	[>1d- [>1f	.	pp
.	.	.	.	4r	.	4r	.	.	.	.	.	.	.	.	.	.	.	.	.
.	.	4.A-^\	.	2r	.	2r	.	4.A-^/	.	4DD-/	4AA-'/ 4D- 4F	.	4A-/	4d-'/ 4f	.	.	.	.	.
.	.	.	.	.	.	.	.	.	.	4DD-/	4AA-'/ 4D- 4F	.	4A-/	4d-'/ 4f	.	.	.	.	.
.	.	8A-\	.	.	.	.	.	8A-/	.	.	.	.	.	.	.	.	.	.	.
=91	=91	=91	=91	=91	=91	=91	=91	=91	=91	=91	=91	=91	=91	=91	=91	=91	=91	=91	=91
*	*	*	*	*	*	*	*	*	*	*	*	*	*	*	*	*rep	*rep	*	*
1D-_	.	[2.d-^\	.	1r	.	1r	.	[2.d-^/	.	4.DD-^/	2.AA-^/ 2.D- 2.F	.	2.A-/	2.d-^/ 2.f	.	1FF_> 1AA-_>	1d-_> 1f_>	.	.
.	.	.	.	.	.	.	.	.	.	8DD-'/	.	.	.	.	.	.	.	.	.
.	.	.	.	.	.	.	.	.	.	4DD-'/	.	.	.	.	.	.	.	.	.
.	.	8d-\L]	.	.	.	.	.	8d-/L]	.	4DD-'/	4AA-/ 4D- 4F	.	4A-/	4d-'/ 4f	.	.	.	.	.
.	.	8e-\J	.	.	.	.	.	8e-/J	.	.	.	.	.	.	.	.	.	.	.
*	*	*	*	*	*	*	*	*	*	*	*	*	*	*	*	*Xrep	*Xrep	*	*
=92	=92	=92	=92	=92	=92	=92	=92	=92	=92	=92	=92	=92	=92	=92	=92	=92	=92	=92	=92
*	*	*	*	*	*	*	*	*	*	*	*	*	*	*	*	*rep	*rep	*	*
1D-]	.	4f^\	.	1r	.	1r	.	4f^/	.	1DD-	4.AA-^/ 4.D- 4.F	.	4.A-/	4.d-^/ 4.f	.	1FF] 1AA-]	1d-_> 1f_>	.	.
.	.	4e-^\	.	.	.	.	.	4e-^/	.	.	.	.	.	.	.	.	.	.	.
.	.	.	.	.	.	.	.	.	.	.	8AA-|/ 8D- 8F	.	8A-'/	8d-'/ 8f	.	.	.	.	.
.	.	4.d-^\	.	.	.	.	.	4.d-^/	.	.	4AA-|/ 4D- 4F	.	4A-'/	4d-'/ 4f	.	.	.	.	.
.	.	.	.	.	.	.	.	.	.	.	4AA-|/ 4D- 4F	.	4A-'/	4d-'/ 4f	.	.	.	.	.
.	.	8B-\	.	.	.	.	.	8B-/	.	.	.	.	.	.	.	.	.	.	.
*	*	*	*	*	*	*	*	*	*	*	*	*	*	*	*	*Xrep	*Xrep	*	*
=93	=93	=93	=93	=93	=93	=93	=93	=93	=93	=93	=93	=93	=93	=93	=93	=93	=93	=93	=93
2D-\	.	[2.A-^\	>	2r	.	1r	.	[2.A-^/	>	4.DD-^/	2AA-/ 2D- 2F	.	2A-/	2d-/ 2f	.	1ryy	1d-] 1f]	.	.
.	.	.	.	.	.	.	.	.	.	8DD-/	.	.	.	.	.	.	.	.	.
2D-\	.	.	.	2F/	.	.	.	.	.	4DD-/	2AA-/ 2D- 2F	.	2A-/	2d-/ 2f	.	.	.	.	.
.	.	8A-\L]	.	.	.	.	.	8A-/L]	.	4DD-/	.	.	.	.	.	.	.	.	.
.	.	8D-\J	.	.	.	.	.	8d-/J	.	.	.	.	.	.	.	.	.	.	.
=94	=94	=94	=94	=94	=94	=94	=94	=94	=94	=94	=94	=94	=94	=94	=94	=94	=94	=94	=94
!	!LO:DY:rj	!	!	!	!	!	!	!	!LO:DY:t=pp.	!	!	!	!	!	!	!	!	!	!
1D-;	pp	1D-;	] pp	1D-;	.	1r;	.	1d-;	pp ]	1DD-;	1AA-; 1D- 1F	.	1A-;	1d-;	.	1DD- 1AA- 1F	1d-;	.	.
==	==	==	==	==	==	==	==	==	==	==	==	==	==	==	==	==	==	==	==
*-	*-	*-	*-	*-	*-	*-	*-	*-	*-	*-	*-	*-	*-	*-	*-	*-	*-	*-	*-
!!!system-decoration: [(s1,s2)][(s3,s4)][(s5,s6)](s7,s8,s9,s10,s11)
!!!RDF**kern: < = below
!!!RDF**kern: > = above
!!!RDF**kern: | = vertical stroke
!!!RDF**kern: N = linked
!!!RDF**kern: @ = marked note, color=blue
!!!ENC: Marcin Jachim
!!!END: 2021-08-09
!!!ENC: Marta Chmielewska
!!!END: 2021-09-09
!!!YEC: Copyright 2022 Narodowy Instytut Fryderyka Chopina (https://polishscores.org)
!!!YEM: Licence CC BY 4.0 (https://creativecommons.org/licenses/by/4.0)
